;Generated with Cura_SteamEngine 13.06.4
G1 F2700 E-0.00400
G0 F12000 X102.50 Y102.50 Z5.00
;total_layers=99
;LAYER:0
M107
G0 F4800 X121.61 Y123.24 Z0.30
;TYPE:SKIRT
G1 F2700 E0.00000
G1 F1200 X121.13 Y123.67 E0.01189
G1 X116.88 Y126.76 E0.10789
G1 X116.32 Y127.08 E0.11977
G1 X111.52 Y129.22 E0.21580
G1 X110.90 Y129.42 E0.22770
G1 X105.77 Y130.51 E0.32372
G1 X105.12 Y130.58 E0.33562
G1 X99.88 Y130.58 E0.43161
G1 X99.23 Y130.51 E0.44351
G1 X94.10 Y129.42 E0.53952
G1 X93.48 Y129.22 E0.55143
G1 X88.68 Y127.08 E0.64745
G1 X88.12 Y126.76 E0.65934
G1 X83.87 Y123.67 E0.75533
G1 X83.39 Y123.24 E0.76723
G1 X79.88 Y119.34 E0.86326
G1 X79.50 Y118.81 E0.87515
G1 X76.87 Y114.27 E0.97118
G1 X76.61 Y113.67 E0.98306
G1 X74.98 Y108.68 E1.07908
G1 X74.85 Y108.04 E1.09100
G1 X74.30 Y102.82 E1.18701
G1 X74.30 Y102.18 E1.19889
G1 X74.85 Y96.96 E1.29490
G1 X74.98 Y96.32 E1.30681
G1 X76.61 Y91.33 E1.40283
G1 X76.87 Y90.73 E1.41472
G1 X79.50 Y86.19 E1.51075
G1 X79.88 Y85.66 E1.52264
G1 X83.39 Y81.76 E1.61867
G1 X83.87 Y81.32 E1.63056
G1 X88.12 Y78.24 E1.72656
G1 X88.68 Y77.92 E1.73844
G1 X93.48 Y75.78 E1.83447
G1 X94.10 Y75.58 E1.84638
G1 X99.23 Y74.49 E1.94239
G1 X99.88 Y74.42 E1.95429
G1 X105.12 Y74.42 E2.05028
G1 X105.77 Y74.49 E2.06218
G1 X110.90 Y75.58 E2.15819
G1 X111.52 Y75.78 E2.17010
G1 X116.32 Y77.92 E2.26612
G1 X116.88 Y78.24 E2.27801
G1 X121.13 Y81.32 E2.37400
G1 X121.61 Y81.76 E2.38590
G1 X125.12 Y85.66 E2.48193
G1 X125.50 Y86.19 E2.49382
G1 X128.13 Y90.73 E2.58985
G1 X128.39 Y91.33 E2.60173
G1 X130.02 Y96.32 E2.69775
G1 X130.15 Y96.96 E2.70967
G1 X130.70 Y102.18 E2.80568
G1 X130.70 Y102.82 E2.81756
G1 X130.15 Y108.04 E2.91357
G1 X130.02 Y108.68 E2.92548
G1 X128.39 Y113.67 E3.02150
G1 X128.13 Y114.27 E3.03339
G1 X125.50 Y118.81 E3.12942
G1 X125.12 Y119.34 E3.14131
G1 X121.61 Y123.24 E3.23734
G1 F2700 E3.23334
G0 F4800 X116.81 Y118.40
;TYPE:WALL-INNER
G1 F2700 E3.23734
G1 F1200 X113.20 Y121.03 E3.31912
G1 X109.11 Y122.85 E3.40092
G1 X104.74 Y123.78 E3.48280
G1 X100.26 Y123.78 E3.56457
G1 X95.89 Y122.85 E3.64644
G1 X91.80 Y121.03 E3.72825
G1 X88.19 Y118.40 E3.81002
G1 X85.19 Y115.08 E3.89191
G1 X82.95 Y111.20 E3.97374
G1 X81.57 Y106.95 E4.05555
G1 X81.10 Y102.50 E4.13739
G1 X81.57 Y98.05 E4.21922
G1 X82.95 Y93.80 E4.30103
G1 X85.19 Y89.92 E4.38286
G1 X88.19 Y86.60 E4.46475
G1 X91.80 Y83.97 E4.54652
G1 X95.89 Y82.15 E4.62833
G1 X100.26 Y81.22 E4.71020
G1 X104.74 Y81.22 E4.79197
G1 X109.11 Y82.15 E4.87385
G1 X113.20 Y83.97 E4.95565
G1 X116.81 Y86.60 E5.03743
G1 X119.81 Y89.92 E5.11932
G1 X122.05 Y93.80 E5.20115
G1 X123.43 Y98.05 E5.28296
G1 X123.90 Y102.50 E5.36479
G1 X123.43 Y106.95 E5.44663
G1 X122.05 Y111.20 E5.52843
G1 X119.81 Y115.08 E5.61027
G1 X116.81 Y118.40 E5.69216
G0 F4800 X117.08 Y118.70
;TYPE:WALL-OUTER
G1 F1200 X113.40 Y121.38 E5.77553
G1 X109.24 Y123.23 E5.85886
G1 X104.78 Y124.18 E5.94229
G1 X100.22 Y124.18 E6.02556
G1 X95.76 Y123.23 E6.10899
G1 X91.60 Y121.38 E6.19231
G1 X87.92 Y118.70 E6.27569
G1 X84.86 Y115.31 E6.35910
G1 X82.59 Y111.37 E6.44243
G1 X81.18 Y107.03 E6.52577
G1 X80.70 Y102.50 E6.60916
G1 X81.18 Y97.97 E6.69254
G1 X82.59 Y93.63 E6.77588
G1 X84.86 Y89.69 E6.85921
G1 X87.92 Y86.30 E6.94263
G1 X91.60 Y83.62 E7.02600
G1 X95.76 Y81.77 E7.10933
G1 X100.22 Y80.82 E7.19276
G1 X104.78 Y80.82 E7.27603
G1 X109.24 Y81.77 E7.35946
G1 X113.40 Y83.62 E7.44278
G1 X117.08 Y86.30 E7.52616
G1 X120.14 Y89.69 E7.60957
G1 X122.41 Y93.63 E7.69290
G1 X123.82 Y97.97 E7.77624
G1 X124.30 Y102.50 E7.85963
G1 X123.82 Y107.03 E7.94301
G1 X122.41 Y111.37 E8.02635
G1 X120.14 Y115.31 E8.10968
G1 X117.08 Y118.70 E8.19310
G0 F4800 X116.78 Y118.23
;TYPE:FILL
G1 F1200 X86.85 Y88.29 E8.96754
G0 F4800 X86.58 Y88.59
G1 F1200 X116.46 Y118.48 E9.74077
G0 F4800 X116.14 Y118.72
G1 F1200 X86.31 Y88.89 E10.51248
G0 F4800 X86.04 Y89.18
G1 F1200 X115.81 Y118.96 E11.28266
G0 F4800 X115.48 Y119.19
G1 F1200 X85.77 Y89.48 E12.05128
G0 F4800 X85.50 Y89.78
G1 F1200 X115.15 Y119.43 E12.81837
G0 F4800 X114.83 Y119.67
G1 F1200 X85.25 Y90.09 E13.58355
G0 F4800 X85.04 Y90.45
G1 F1200 X114.50 Y119.91 E14.34560
G0 F4800 X114.17 Y120.14
G1 F1200 X84.84 Y90.81 E15.10452
G0 F4800 X84.63 Y91.17
G1 F1200 X113.84 Y120.38 E15.86032
G0 F4800 X113.52 Y120.62
G1 F1200 X84.42 Y91.53 E16.61304
G0 F4800 X84.22 Y91.89
G1 F1200 X113.19 Y120.86 E17.36259
G0 F4800 X112.81 Y121.05
G1 F1200 X84.01 Y92.25 E18.10770
G0 F4800 X83.80 Y92.60
G1 F1200 X112.42 Y121.22 E18.84802
G0 F4800 X112.03 Y121.39
G1 F1200 X83.59 Y92.96 E19.58361
G0 F4800 X83.39 Y93.32
G1 F1200 X111.64 Y121.57 E20.31441
G0 F4800 X111.24 Y121.74
G1 F1200 X83.18 Y93.68 E21.04042
G0 F4800 X83.01 Y94.07
G1 F1200 X110.85 Y121.92 E21.76077
G0 F4800 X110.46 Y122.09
G1 F1200 X82.87 Y94.50 E22.47458
G0 F4800 X82.73 Y94.93
G1 F1200 X110.07 Y122.27 E23.18187
G0 F4800 X109.68 Y122.44
G1 F1200 X82.59 Y95.35 E23.88263
G0 F4800 X82.45 Y95.78
G1 F1200 X109.29 Y122.61 E24.57685
G0 F4800 X108.86 Y122.76
G1 F1200 X82.32 Y96.21 E25.26367
G0 F4800 X82.18 Y96.64
G1 F1200 X108.40 Y122.86 E25.94200
G0 F4800 X107.93 Y122.96
G1 F1200 X82.04 Y97.06 E26.61185
G0 F4800 X81.90 Y97.49
G1 F1200 X107.46 Y123.05 E27.27321
G0 F4800 X107.00 Y123.15
G1 F1200 X81.76 Y97.92 E27.92609
G0 F4800 X81.67 Y98.40
G1 F1200 X106.53 Y123.25 E28.56913
G0 F4800 X106.06 Y123.35
G1 F1200 X81.62 Y98.91 E29.20151
G0 F4800 X81.57 Y99.42
G1 F1200 X105.60 Y123.45 E29.82321
G0 F4800 X105.13 Y123.55
G1 F1200 X81.51 Y99.93 E30.43423
G0 F4800 X81.46 Y100.44
G1 F1200 X104.65 Y123.64 E31.03430
G0 F4800 X104.09 Y123.64
G1 F1200 X81.40 Y100.96 E31.62114
G0 F4800 X81.35 Y101.47
G1 F1200 X103.52 Y123.64 E32.19474
G0 F4800 X102.96 Y123.64
G1 F1200 X81.30 Y101.98 E32.75509
G0 F4800 X81.24 Y102.49
G1 F1200 X102.39 Y123.64 E33.30221
G0 F4800 X101.82 Y123.64
G1 F1200 X81.31 Y103.12 E33.83297
G0 F4800 X81.38 Y103.75
G1 F1200 X101.26 Y123.64 E34.34739
G0 F4800 X100.69 Y123.64
G1 F1200 X81.44 Y104.39 E34.84545
G0 F4800 X81.51 Y105.02
G1 F1200 X100.09 Y123.60 E35.32608
G0 F4800 X99.37 Y123.44
G1 F1200 X81.57 Y105.65 E35.78641
G0 F4800 X81.64 Y106.28
G1 F1200 X98.65 Y123.29 E36.22644
G0 F4800 X97.93 Y123.14
G1 F1200 X81.71 Y106.91 E36.64617
G0 F4800 X81.98 Y107.75
G1 F1200 X97.21 Y122.99 E37.04030
G0 F4800 X96.50 Y122.83
G1 F1200 X82.25 Y108.59 E37.40880
G0 F4800 X82.52 Y109.43
G1 F1200 X95.71 Y122.62 E37.75006
G0 F4800 X94.69 Y122.16
G1 F1200 X82.79 Y110.26 E38.05789
G0 F4800 X83.07 Y111.10
G1 F1200 X93.67 Y121.71 E38.33229
G0 F4800 X92.65 Y121.25
G1 F1200 X83.82 Y112.42 E38.56088
G0 F4800 X84.59 Y113.75
G1 F1200 X91.39 Y120.55 E38.73670
G0 F4800 X89.32 Y119.05
G1 F1200 X85.69 Y115.42 E38.83052
G0 F4800 X87.11 Y88.00
G1 F1200 X117.05 Y117.93 E39.60496
G0 F4800 X117.32 Y117.63
G1 F1200 X87.38 Y87.70 E40.37940
G0 F4800 X87.65 Y87.40
G1 F1200 X117.58 Y117.33 E41.15384
G0 F4800 X117.85 Y117.04
G1 F1200 X87.92 Y87.10 E41.92830
G0 F4800 X88.19 Y86.81
G1 F1200 X118.12 Y116.74 E42.70273
G0 F4800 X118.39 Y116.44
G1 F1200 X88.49 Y86.55 E43.47618
G0 F4800 X88.82 Y86.31
G1 F1200 X118.66 Y116.14 E44.24806
G0 F4800 X118.93 Y115.85
G1 F1200 X89.15 Y86.07 E45.01841
G0 F4800 X89.47 Y85.83
G1 F1200 X119.19 Y115.55 E45.78724
G0 F4800 X119.46 Y115.25
G1 F1200 X89.80 Y85.60 E46.55453
G0 F4800 X90.13 Y85.36
G1 F1200 X119.72 Y114.95 E47.32007
G0 F4800 X119.93 Y114.59
G1 F1200 X90.46 Y85.12 E48.08248
G0 F4800 X90.79 Y84.88
G1 F1200 X120.14 Y114.23 E48.84178
G0 F4800 X120.34 Y113.87
G1 F1200 X91.11 Y84.64 E49.59796
G0 F4800 X91.44 Y84.40
G1 F1200 X120.55 Y113.51 E50.35100
G0 F4800 X120.76 Y113.15
G1 F1200 X91.77 Y84.17 E51.10094
G0 F4800 X92.14 Y83.97
G1 F1200 X120.96 Y112.79 E51.84662
G0 F4800 X121.17 Y112.44
G1 F1200 X92.53 Y83.80 E52.58756
G0 F4800 X92.92 Y83.62
G1 F1200 X121.38 Y112.08 E53.32372
G0 F4800 X121.58 Y111.72
G1 F1200 X93.31 Y83.45 E54.05511
G0 F4800 X93.71 Y83.28
G1 F1200 X121.79 Y111.36 E54.78171
G0 F4800 X121.97 Y110.98
G1 F1200 X94.10 Y83.10 E55.50289
G0 F4800 X94.49 Y82.93
G1 F1200 X122.11 Y110.55 E56.21753
G0 F4800 X122.25 Y110.12
G1 F1200 X94.88 Y82.75 E56.92561
G0 F4800 X95.27 Y82.58
G1 F1200 X122.39 Y109.69 E57.62715
G0 F4800 X122.53 Y109.27
G1 F1200 X95.66 Y82.40 E58.32215
G0 F4800 X96.08 Y82.25
G1 F1200 X122.67 Y108.84 E59.01000
G0 F4800 X122.80 Y108.41
G1 F1200 X96.54 Y82.15 E59.68937
G0 F4800 X97.01 Y82.05
G1 F1200 X122.94 Y107.99 E60.36027
G0 F4800 X123.08 Y107.56
G1 F1200 X97.48 Y81.96 E61.02268
G0 F4800 X97.94 Y81.86
G1 F1200 X123.22 Y107.13 E61.67661
G0 F4800 X123.32 Y106.66
G1 F1200 X98.41 Y81.76 E62.32095
G0 F4800 X98.88 Y81.66
G1 F1200 X123.37 Y106.15 E62.95462
G0 F4800 X123.42 Y105.64
G1 F1200 X99.34 Y81.56 E63.57759
G0 F4800 X99.81 Y81.46
G1 F1200 X123.48 Y105.13 E64.18989
G0 F4800 X123.53 Y104.61
G1 F1200 X100.28 Y81.36 E64.79150
G0 F4800 X100.84 Y81.36
G1 F1200 X123.59 Y104.10 E65.37987
G0 F4800 X123.64 Y103.59
G1 F1200 X101.41 Y81.36 E65.95498
G0 F4800 X101.97 Y81.36
G1 F1200 X123.69 Y103.08 E66.51688
G0 F4800 X123.75 Y102.57
G1 F1200 X102.54 Y81.36 E67.06553
G0 F4800 X103.11 Y81.36
G1 F1200 X123.70 Y101.95 E67.59823
G0 F4800 X123.63 Y101.32
G1 F1200 X103.67 Y81.36 E68.11460
G0 F4800 X104.24 Y81.36
G1 F1200 X123.56 Y100.69 E68.61461
G0 F4800 X123.50 Y100.06
G1 F1200 X104.82 Y81.38 E69.09769
G0 F4800 X105.54 Y81.54
G1 F1200 X123.43 Y99.42 E69.56046
G0 F4800 X123.36 Y98.79
G1 F1200 X106.26 Y81.69 E70.00293
G0 F4800 X106.98 Y81.84
G1 F1200 X123.30 Y98.16 E70.42509
G0 F4800 X123.05 Y97.35
G1 F1200 X107.70 Y81.99 E70.82228
G0 F4800 X108.42 Y82.15
G1 F1200 X122.78 Y96.51 E71.19385
G0 F4800 X122.51 Y95.67
G1 F1200 X109.16 Y82.33 E71.53910
G0 F4800 X110.18 Y82.78
G1 F1200 X122.24 Y94.83 E71.85092
G0 F4800 X121.96 Y94.00
G1 F1200 X111.20 Y83.24 E72.12930
G0 F4800 X112.22 Y83.69
G1 F1200 X121.28 Y92.74 E72.36349
G0 F4800 X120.50 Y91.40
G1 F1200 X113.36 Y84.27 E72.54813
G0 F4800 X115.43 Y85.77
G1 F1200 X119.73 Y90.06 E72.65927
;LAYER:1
G0 F6600 X119.81 Y89.92 Z0.40
;TYPE:WALL-INNER
G1 F1620 X122.05 Y93.80 E72.68655
G1 X123.43 Y98.05 E72.71382
G1 X123.90 Y102.50 E72.74109
G1 X123.43 Y106.95 E72.76837
G1 X122.05 Y111.20 E72.79564
G1 X119.81 Y115.08 E72.82292
G1 X116.81 Y118.40 E72.85022
G1 X113.20 Y121.03 E72.87747
G1 X109.11 Y122.85 E72.90474
G1 X104.74 Y123.78 E72.93203
G1 X100.26 Y123.78 E72.95929
G1 X95.89 Y122.85 E72.98658
G1 X91.80 Y121.03 E73.01385
G1 X88.19 Y118.40 E73.04111
G1 X85.19 Y115.08 E73.06840
G1 X82.95 Y111.20 E73.09568
G1 X81.57 Y106.95 E73.12295
G1 X81.10 Y102.50 E73.15023
G1 X81.57 Y98.05 E73.17751
G1 X82.95 Y93.80 E73.20478
G1 X85.19 Y89.92 E73.23206
G1 X88.19 Y86.60 E73.25935
G1 X91.80 Y83.97 E73.28661
G1 X95.89 Y82.15 E73.31388
G1 X100.26 Y81.22 E73.34117
G1 X104.74 Y81.22 E73.36843
G1 X109.11 Y82.15 E73.39572
G1 X113.20 Y83.97 E73.42299
G1 X116.81 Y86.60 E73.45024
G1 X119.81 Y89.92 E73.47754
G0 F6600 X120.14 Y89.69
;TYPE:WALL-OUTER
G1 F1620 X122.41 Y93.63 E73.50532
G1 X123.82 Y97.97 E73.53310
G1 X124.30 Y102.50 E73.56089
G1 X123.82 Y107.03 E73.58869
G1 X122.41 Y111.37 E73.61647
G1 X120.14 Y115.31 E73.64424
G1 X117.08 Y118.70 E73.67205
G1 X113.40 Y121.38 E73.69984
G1 X109.24 Y123.23 E73.72761
G1 X104.78 Y124.18 E73.75542
G1 X100.22 Y124.18 E73.78318
G1 X95.76 Y123.23 E73.81099
G1 X91.60 Y121.38 E73.83877
G1 X87.92 Y118.70 E73.86656
G1 X84.86 Y115.31 E73.89436
G1 X82.59 Y111.37 E73.92214
G1 X81.18 Y107.03 E73.94992
G1 X80.70 Y102.50 E73.97771
G1 X81.18 Y97.97 E74.00551
G1 X82.59 Y93.63 E74.03329
G1 X84.86 Y89.69 E74.06107
G1 X87.92 Y86.30 E74.08887
G1 X91.60 Y83.62 E74.11666
G1 X95.76 Y81.77 E74.14444
G1 X100.22 Y80.82 E74.17225
G1 X104.78 Y80.82 E74.20001
G1 X109.24 Y81.77 E74.22781
G1 X113.40 Y83.62 E74.25559
G1 X117.08 Y86.30 E74.28338
G1 X120.14 Y89.69 E74.31119
G0 F6600 X119.75 Y90.09
;TYPE:FILL
G1 F1620 X90.17 Y119.67 E74.56624
G0 F6600 X90.50 Y119.91
G1 F1620 X119.95 Y90.45 E74.82024
G0 F6600 X120.16 Y90.81
G1 F1620 X90.82 Y120.15 E75.07321
G0 F6600 X91.15 Y120.38
G1 F1620 X120.37 Y91.17 E75.32514
G0 F6600 X120.57 Y91.53
G1 F1620 X91.48 Y120.62 E75.57603
G0 F6600 X91.81 Y120.86
G1 F1620 X120.78 Y91.89 E75.82588
G0 F6600 X120.99 Y92.25
G1 F1620 X92.19 Y121.05 E76.07425
G0 F6600 X92.58 Y121.22
G1 F1620 X121.19 Y92.61 E76.32102
G0 F6600 X121.40 Y92.96
G1 F1620 X92.97 Y121.40 E76.56621
G0 F6600 X93.36 Y121.57
G1 F1620 X121.61 Y93.32 E76.80980
G0 F6600 X121.82 Y93.68
G1 F1620 X93.75 Y121.74 E77.05181
G0 F6600 X94.14 Y121.92
G1 F1620 X121.99 Y94.07 E77.29193
G0 F6600 X122.13 Y94.50
G1 F1620 X94.54 Y122.09 E77.52987
G0 F6600 X94.93 Y122.27
G1 F1620 X122.26 Y94.93 E77.76563
G0 F6600 X122.40 Y95.36
G1 F1620 X95.32 Y122.44 E77.99921
G0 F6600 X95.71 Y122.62
G1 F1620 X122.54 Y95.78 E78.23061
G0 F6600 X122.68 Y96.21
G1 F1620 X96.13 Y122.76 E78.45954
G0 F6600 X96.60 Y122.86
G1 F1620 X122.82 Y96.64 E78.68565
G0 F6600 X122.96 Y97.06
G1 F1620 X97.07 Y122.96 E78.90892
G0 F6600 X97.53 Y123.05
G1 F1620 X123.10 Y97.49 E79.12937
G0 F6600 X123.24 Y97.92
G1 F1620 X98.00 Y123.15 E79.34699
G0 F6600 X98.47 Y123.25
G1 F1620 X123.32 Y98.40 E79.56133
G0 F6600 X123.38 Y98.91
G1 F1620 X98.93 Y123.35 E79.77210
G0 F6600 X99.40 Y123.45
G1 F1620 X123.43 Y99.42 E79.97933
G0 F6600 X123.48 Y99.93
G1 F1620 X99.87 Y123.55 E80.18300
G0 F6600 X100.34 Y123.64
G1 F1620 X123.54 Y100.44 E80.38301
G0 F6600 X123.59 Y100.96
G1 F1620 X100.91 Y123.64 E80.57862
G0 F6600 X101.48 Y123.64
G1 F1620 X123.65 Y101.47 E80.76980
G0 F6600 X123.70 Y101.98
G1 F1620 X102.04 Y123.64 E80.95657
G0 F6600 X102.61 Y123.64
G1 F1620 X123.75 Y102.49 E81.13893
G0 F6600 X123.69 Y103.12
G1 F1620 X103.17 Y123.64 E81.31584
G0 F6600 X103.74 Y123.64
G1 F1620 X123.62 Y103.75 E81.48731
G0 F6600 X123.56 Y104.39
G1 F1620 X104.30 Y123.64 E81.65332
G0 F6600 X104.91 Y123.60
G1 F1620 X123.49 Y105.02 E81.81353
G0 F6600 X123.42 Y105.65
G1 F1620 X105.63 Y123.44 E81.96698
G0 F6600 X106.35 Y123.29
G1 F1620 X123.36 Y106.28 E82.11365
G0 F6600 X123.29 Y106.92
G1 F1620 X107.07 Y123.14 E82.25356
G0 F6600 X107.78 Y122.99
G1 F1620 X123.02 Y107.75 E82.38494
G0 F6600 X122.75 Y108.59
G1 F1620 X108.50 Y122.83 E82.50778
G0 F6600 X109.28 Y122.62
G1 F1620 X122.47 Y109.43 E82.62153
G0 F6600 X122.20 Y110.26
G1 F1620 X110.31 Y122.16 E82.72413
G0 F6600 X111.32 Y121.71
G1 F1620 X121.93 Y111.10 E82.81558
G0 F6600 X121.18 Y112.42
G1 F1620 X112.35 Y121.25 E82.89178
G0 F6600 X113.61 Y120.56
G1 F1620 X120.41 Y113.76 E82.95041
G0 F6600 X119.31 Y115.42
G1 F1620 X115.68 Y119.05 E82.98169
G0 F6600 X89.84 Y119.43
G1 F1620 X119.49 Y89.78 E83.23739
G0 F6600 X119.22 Y89.48
G1 F1620 X89.51 Y119.19 E83.49360
G0 F6600 X89.19 Y118.96
G1 F1620 X118.96 Y89.19 E83.75031
G0 F6600 X118.69 Y88.89
G1 F1620 X88.86 Y118.72 E84.00755
G0 F6600 X88.53 Y118.48
G1 F1620 X118.42 Y88.59 E84.26529
G0 F6600 X118.15 Y88.29
G1 F1620 X88.22 Y118.23 E84.52342
G0 F6600 X87.95 Y117.93
G1 F1620 X117.88 Y88.00 E84.78154
G0 F6600 X117.61 Y87.70
G1 F1620 X87.68 Y117.63 E85.03967
G0 F6600 X87.41 Y117.33
G1 F1620 X117.35 Y87.40 E85.29780
G0 F6600 X117.08 Y87.10
G1 F1620 X87.15 Y117.04 E85.55593
G0 F6600 X86.88 Y116.74
G1 F1620 X116.81 Y86.81 E85.81406
G0 F6600 X116.50 Y86.55
G1 F1620 X86.61 Y116.44 E86.07187
G0 F6600 X86.34 Y116.14
G1 F1620 X116.18 Y86.31 E86.32917
G0 F6600 X115.85 Y86.07
G1 F1620 X86.07 Y115.85 E86.58595
G0 F6600 X85.81 Y115.55
G1 F1620 X115.52 Y85.83 E86.84222
G0 F6600 X115.19 Y85.60
G1 F1620 X85.54 Y115.25 E87.09797
G0 F6600 X85.28 Y114.95
G1 F1620 X114.87 Y85.36 E87.35314
G0 F6600 X114.54 Y85.12
G1 F1620 X85.07 Y114.59 E87.60728
G0 F6600 X84.86 Y114.23
G1 F1620 X114.21 Y84.88 E87.86036
G0 F6600 X113.88 Y84.64
G1 F1620 X84.66 Y113.87 E88.11242
G0 F6600 X84.45 Y113.51
G1 F1620 X113.56 Y84.40 E88.36343
G0 F6600 X113.23 Y84.17
G1 F1620 X84.24 Y113.15 E88.61341
G0 F6600 X84.04 Y112.79
G1 F1620 X112.86 Y83.97 E88.86196
G0 F6600 X112.47 Y83.80
G1 F1620 X83.83 Y112.44 E89.10892
G0 F6600 X83.62 Y112.08
G1 F1620 X112.07 Y83.62 E89.35430
G0 F6600 X111.68 Y83.45
G1 F1620 X83.41 Y111.72 E89.59809
G0 F6600 X83.21 Y111.36
G1 F1620 X111.29 Y83.27 E89.84029
G0 F6600 X110.90 Y83.10
G1 F1620 X83.03 Y110.97 E90.08068
G0 F6600 X82.89 Y110.55
G1 F1620 X110.51 Y82.93 E90.31889
G0 F6600 X110.12 Y82.75
G1 F1620 X82.75 Y110.12 E90.55491
G0 F6600 X82.61 Y109.69
G1 F1620 X109.73 Y82.58 E90.78876
