;Generated with Cura_SteamEngine 13.06.4
G1 F2700 E-0.00400
G0 F12000 X102.50 Y102.50 Z5.00
;total_layers=249
;LAYER:0
M107
G0 F4800 X106.20 Y93.80 Z0.30
;TYPE:SKIRT
G1 F2700 E0.00000
G1 F1200 X107.57 Y93.80 E0.02503
G1 X111.20 Y97.43 E0.11898
G1 X111.20 Y98.80 E0.14402
G1 X112.57 Y98.80 E0.16903
G1 X116.20 Y102.43 E0.26298
G1 X116.20 Y103.80 E0.28802
G1 X117.57 Y103.80 E0.31305
G1 X121.20 Y107.43 E0.40700
G1 X121.20 Y117.57 E0.59244
G1 X117.57 Y121.20 E0.68640
G1 X102.43 Y121.20 E0.96329
G1 X100.00 Y118.77 E1.02618
G1 X97.57 Y121.20 E1.08907
G1 X87.43 Y121.20 E1.27451
G1 X83.80 Y117.57 E1.36846
G1 X83.80 Y87.43 E1.91977
G1 X87.43 Y83.80 E2.01371
G1 X97.57 Y83.80 E2.19915
G1 X101.20 Y87.43 E2.29310
G1 X101.20 Y88.80 E2.31814
G1 X102.57 Y88.80 E2.34315
G1 X106.20 Y92.43 E2.43710
G1 X106.20 Y93.80 E2.46215
G1 F2700 E2.45815
G0 F4800 X99.40 Y95.60
;TYPE:WALL-INNER
G1 F2700 E2.46215
G1 F1200 X99.40 Y100.25 E2.54717
G1 X99.75 Y100.60 E2.55627
G1 X104.40 Y100.60 E2.64131
G1 X104.40 Y105.25 E2.72634
G1 X104.75 Y105.60 E2.73544
G1 X109.40 Y105.60 E2.82046
G1 X109.40 Y110.25 E2.90549
G1 X109.75 Y110.60 E2.91458
G1 X114.40 Y110.60 E2.99963
G1 X114.40 Y114.40 E3.06915
G1 X105.60 Y114.40 E3.23011
G1 X105.60 Y109.75 E3.31516
G1 X105.25 Y109.40 E3.32425
G1 X94.75 Y109.40 E3.51626
G1 X94.40 Y109.75 E3.52534
G1 X94.40 Y114.40 E3.61039
G1 X90.60 Y114.40 E3.67990
G1 X90.60 Y90.60 E4.11528
G1 X94.40 Y90.60 E4.18480
G1 X94.40 Y95.25 E4.26983
G1 X94.75 Y95.60 E4.27892
G1 X99.40 Y95.60 E4.36395
G0 F4800 X99.80 Y95.20
;TYPE:WALL-OUTER
G1 F1200 X99.80 Y100.08 E4.45326
G1 X99.92 Y100.20 E4.45630
G1 X104.80 Y100.20 E4.54562
G1 X104.80 Y105.08 E4.63493
G1 X104.92 Y105.20 E4.63797
G1 X109.80 Y105.20 E4.72728
G1 X109.80 Y110.08 E4.81659
G1 X109.92 Y110.20 E4.81963
G1 X114.80 Y110.20 E4.90896
G1 X114.80 Y114.80 E4.99311
G1 X105.20 Y114.80 E5.16871
G1 X105.20 Y109.92 E5.25803
G1 X105.08 Y109.80 E5.26107
G1 X94.92 Y109.80 E5.44701
G1 X94.80 Y109.92 E5.45003
G1 X94.80 Y114.80 E5.53936
G1 X90.20 Y114.80 E5.62351
G1 X90.20 Y90.20 E6.07353
G1 X94.80 Y90.20 E6.15768
G1 X94.80 Y95.08 E6.24699
G1 X94.92 Y95.20 E6.25003
G1 X99.80 Y95.20 E6.33934
G0 F4800 X99.13 Y95.74
;TYPE:FILL
G1 F1200 X99.26 Y95.87 E6.34278
G0 F4800 X99.26 Y96.44
G1 F1200 X98.56 Y95.74 E6.36085
G0 F4800 X98.00 Y95.74
G1 F1200 X99.26 Y97.00 E6.39356
G0 F4800 X99.26 Y97.57
G1 F1200 X97.43 Y95.74 E6.44091
G0 F4800 X96.86 Y95.74
G1 F1200 X99.26 Y98.14 E6.50288
G0 F4800 X99.26 Y98.70
G1 F1200 X96.30 Y95.74 E6.57950
G0 F4800 X95.73 Y95.74
G1 F1200 X99.26 Y99.27 E6.67074
G0 F4800 X99.26 Y99.83
G1 F1200 X95.17 Y95.74 E6.77662
G0 F4800 X94.26 Y94.83
G1 F1200 X90.74 Y91.31 E6.86768
G0 F4800 X90.75 Y90.76
G1 F1200 X94.26 Y94.27 E6.95839
G0 F4800 X94.26 Y93.70
G1 F1200 X91.30 Y90.74 E7.03502
G0 F4800 X91.86 Y90.74
G1 F1200 X94.26 Y93.14 E7.09700
G0 F4800 X94.26 Y92.57
G1 F1200 X92.43 Y90.74 E7.14435
G0 F4800 X93.00 Y90.74
G1 F1200 X94.26 Y92.00 E7.17707
G0 F4800 X94.26 Y91.44
G1 F1200 X93.56 Y90.74 E7.19516
G0 F4800 X94.13 Y90.74
G1 F1200 X94.26 Y90.87 E7.19860
G0 F4800 X90.74 Y91.88
G1 F1200 X113.12 Y114.26 E7.77759
G0 F4800 X112.56 Y114.26
G1 F1200 X90.74 Y92.44 E8.34195
G0 F4800 X90.74 Y93.01
G1 F1200 X111.99 Y114.26 E8.89168
G0 F4800 X111.42 Y114.26
G1 F1200 X90.74 Y93.58 E9.42676
G0 F4800 X90.74 Y94.14
G1 F1200 X110.86 Y114.26 E9.94722
G0 F4800 X110.29 Y114.26
G1 F1200 X105.73 Y109.70 E10.06527
G0 F4800 X105.74 Y110.27
G1 F1200 X109.73 Y114.26 E10.16840
G0 F4800 X109.16 Y114.26
G1 F1200 X105.74 Y110.84 E10.25691
G0 F4800 X105.74 Y111.40
G1 F1200 X108.60 Y114.26 E10.33078
G0 F4800 X108.03 Y114.26
G1 F1200 X105.74 Y111.97 E10.39001
G0 F4800 X105.74 Y112.54
G1 F1200 X107.46 Y114.26 E10.43460
G0 F4800 X106.90 Y114.26
G1 F1200 X105.74 Y113.10 E10.46456
G0 F4800 X105.74 Y113.67
G1 F1200 X106.33 Y114.26 E10.47989
G0 F4800 X105.30 Y109.27
G1 F1200 X90.74 Y94.71 E10.85665
G0 F4800 X90.74 Y95.27
G1 F1200 X104.73 Y109.26 E11.21848
G0 F4800 X104.16 Y109.26
G1 F1200 X90.74 Y95.84 E11.56568
G0 F4800 X90.74 Y96.40
G1 F1200 X103.60 Y109.26 E11.89824
G0 F4800 X103.03 Y109.26
G1 F1200 X90.74 Y96.97 E12.21617
G0 F4800 X90.74 Y97.54
G1 F1200 X102.46 Y109.26 E12.51947
G0 F4800 X101.90 Y109.26
G1 F1200 X90.74 Y98.10 E12.80814
G0 F4800 X90.74 Y98.67
G1 F1200 X101.33 Y109.26 E13.08216
G0 F4800 X100.77 Y109.26
G1 F1200 X90.74 Y99.23 E13.34154
G0 F4800 X90.74 Y99.80
G1 F1200 X100.20 Y109.26 E13.58630
G0 F4800 X99.64 Y109.26
G1 F1200 X90.74 Y100.36 E13.81643
G0 F4800 X90.74 Y100.93
G1 F1200 X99.07 Y109.26 E14.03190
G0 F4800 X98.50 Y109.26
G1 F1200 X90.74 Y101.50 E14.23277
G0 F4800 X90.74 Y102.06
G1 F1200 X97.94 Y109.26 E14.41898
G0 F4800 X97.37 Y109.26
G1 F1200 X90.74 Y102.63 E14.59056
G0 F4800 X90.74 Y103.19
G1 F1200 X96.81 Y109.26 E14.74750
G0 F4800 X96.24 Y109.26
G1 F1200 X90.74 Y103.76 E14.88982
G0 F4800 X90.74 Y104.32
G1 F1200 X95.68 Y109.26 E15.01749
G0 F4800 X95.11 Y109.26
G1 F1200 X90.74 Y104.89 E15.13054
G0 F4800 X90.74 Y105.46
G1 F1200 X94.62 Y109.33 E15.23086
G0 F4800 X94.33 Y109.62
G1 F1200 X90.74 Y106.02 E15.32387
G0 F4800 X90.74 Y106.59
G1 F1200 X94.26 Y110.11 E15.41495
G0 F4800 X94.26 Y110.67
G1 F1200 X90.74 Y107.15 E15.50604
G0 F4800 X90.74 Y107.72
G1 F1200 X94.26 Y111.24 E15.59713
G0 F4800 X94.26 Y111.80
G1 F1200 X90.74 Y108.28 E15.68821
G0 F4800 X90.74 Y108.85
G1 F1200 X94.26 Y112.37 E15.77930
G0 F4800 X94.26 Y112.94
G1 F1200 X90.74 Y109.42 E15.87039
G0 F4800 X90.74 Y109.98
G1 F1200 X94.26 Y113.50 E15.96147
G0 F4800 X94.26 Y114.07
G1 F1200 X90.74 Y110.55 E16.05256
G0 F4800 X90.74 Y111.11
G1 F1200 X93.89 Y114.26 E16.13398
G0 F4800 X93.32 Y114.26
G1 F1200 X90.74 Y111.68 E16.20075
G0 F4800 X90.74 Y112.24
G1 F1200 X92.76 Y114.26 E16.25289
G0 F4800 X92.19 Y114.26
G1 F1200 X90.74 Y112.81 E16.29040
G0 F4800 X90.74 Y113.38
G1 F1200 X91.62 Y114.26 E16.31327
G0 F4800 X91.06 Y114.26
G1 F1200 X90.74 Y113.94 E16.32151
G0 F4800 X100.17 Y100.74
G1 F1200 X104.26 Y104.83 E16.42739
G0 F4800 X104.26 Y104.27
G1 F1200 X100.73 Y100.74 E16.51864
G0 F4800 X101.30 Y100.74
G1 F1200 X104.26 Y103.70 E16.59525
G0 F4800 X104.26 Y103.14
G1 F1200 X101.86 Y100.74 E16.65723
G0 F4800 X102.43 Y100.74
G1 F1200 X104.26 Y102.57 E16.70457
G0 F4800 X104.26 Y102.00
G1 F1200 X103.00 Y100.74 E16.73728
G0 F4800 X103.56 Y100.74
G1 F1200 X104.26 Y101.44 E16.75535
G0 F4800 X104.26 Y100.87
G1 F1200 X104.13 Y100.74 E16.75880
G0 F4800 X99.76 Y100.58
G0 X99.42 Y100.24
G0 X94.42 Y95.24
G0 X105.58 Y109.76
G0 X114.46 Y114.46
G0 X109.42 Y110.24
G0 X105.17 Y105.74
G1 F1200 X109.26 Y109.83 E16.86463
G0 F4800 X109.26 Y109.26
G1 F1200 X105.73 Y105.74 E16.95584
G0 F4800 X106.30 Y105.74
G1 F1200 X109.26 Y108.70 E17.03241
G0 F4800 X109.26 Y108.13
G1 F1200 X106.86 Y105.74 E17.09434
G0 F4800 X107.43 Y105.74
G1 F1200 X109.26 Y107.57 E17.14163
G0 F4800 X109.26 Y107.00
G1 F1200 X108.00 Y105.74 E17.17429
G0 F4800 X108.56 Y105.74
G1 F1200 X109.26 Y106.44 E17.19233
G0 F4800 X109.26 Y105.87
G1 F1200 X109.13 Y105.74 E17.19572
G0 F4800 X104.76 Y105.58
G0 X104.42 Y105.24
G0 X99.42 Y100.24
G0 X94.42 Y95.24
G0 X105.58 Y109.76
G0 X114.46 Y114.46
G0 X110.17 Y110.74
G1 F1200 X113.69 Y114.26 E17.28677
G0 F4800 X114.24 Y114.24
G1 F1200 X110.73 Y110.74 E17.37744
G0 F4800 X111.30 Y110.74
G1 F1200 X114.26 Y113.70 E17.45402
G0 F4800 X114.26 Y113.13
G1 F1200 X111.86 Y110.74 E17.51597
G0 F4800 X112.43 Y110.74
G1 F1200 X114.26 Y112.57 E17.56329
G0 F4800 X114.26 Y112.00
G1 F1200 X113.00 Y110.74 E17.59596
G0 F4800 X113.56 Y110.74
G1 F1200 X114.26 Y111.44 E17.61401
G0 F4800 X114.26 Y110.87
G1 F1200 X114.13 Y110.74 E17.61741
;LAYER:1
G0 F6600 X114.40 Y110.60 Z0.40
;TYPE:WALL-INNER
G1 F1620 X114.40 Y114.40 E17.64058
G1 X105.60 Y114.40 E17.69424
G1 X105.60 Y109.75 E17.72259
G1 X105.25 Y109.40 E17.72562
G1 X94.75 Y109.40 E17.78962
G1 X94.40 Y109.75 E17.79265
G1 X94.40 Y114.40 E17.82099
G1 X90.60 Y114.40 E17.84417
G1 X90.60 Y90.60 E17.98929
G1 X94.40 Y90.60 E18.01247
G1 X94.40 Y95.25 E18.04081
G1 X94.75 Y95.60 E18.04384
G1 X99.40 Y95.60 E18.07218
G1 X99.40 Y100.25 E18.10053
G1 X99.75 Y100.60 E18.10356
G1 X104.40 Y100.60 E18.13191
G1 X104.40 Y105.25 E18.16025
G1 X104.75 Y105.60 E18.16328
G1 X109.40 Y105.60 E18.19162
G1 X109.40 Y110.25 E18.21996
G1 X109.75 Y110.60 E18.22300
G1 X114.40 Y110.60 E18.25134
G0 F6600 X114.80 Y110.20
;TYPE:WALL-OUTER
G1 F1620 X114.80 Y114.80 E18.27939
G1 X105.20 Y114.80 E18.33793
G1 X105.20 Y109.92 E18.36770
G1 X105.08 Y109.80 E18.36872
G1 X94.92 Y109.80 E18.43069
G1 X94.80 Y109.92 E18.43170
G1 X94.80 Y114.80 E18.46148
G1 X90.20 Y114.80 E18.48953
G1 X90.20 Y90.20 E18.63954
G1 X94.80 Y90.20 E18.66759
G1 X94.80 Y95.08 E18.69735
G1 X94.92 Y95.20 E18.69837
G1 X99.80 Y95.20 E18.72814
G1 X99.80 Y100.08 E18.75791
G1 X99.92 Y100.20 E18.75892
G1 X104.80 Y100.20 E18.78870
G1 X104.80 Y105.08 E18.81847
G1 X104.92 Y105.20 E18.81948
G1 X109.80 Y105.20 E18.84925
G1 X109.80 Y110.08 E18.87902
G1 X109.92 Y110.20 E18.88003
G1 X114.80 Y110.20 E18.90981
G0 F6600 X114.07 Y110.74
;TYPE:FILL
G1 F1620 X110.54 Y114.26 E18.94016
G0 F6600 X111.11 Y114.26
G1 F1620 X114.26 Y111.11 E18.96730
G0 F6600 X114.26 Y111.68
G1 F1620 X111.68 Y114.26 E18.98955
G0 F6600 X112.24 Y114.26
G1 F1620 X114.26 Y112.24 E19.00693
G0 F6600 X114.26 Y112.81
G1 F1620 X112.81 Y114.26 E19.01943
G0 F6600 X113.37 Y114.26
G1 F1620 X114.26 Y113.38 E19.02705
G0 F6600 X114.26 Y113.94
G1 F1620 X113.94 Y114.26 E19.02980
G0 F6600 X113.50 Y110.74
G1 F1620 X109.98 Y114.26 E19.06015
G0 F6600 X109.41 Y114.26
G1 F1620 X112.93 Y110.74 E19.09051
G0 F6600 X112.37 Y110.74
G1 F1620 X108.85 Y114.26 E19.12086
G0 F6600 X108.28 Y114.26
G1 F1620 X111.80 Y110.74 E19.15122
G0 F6600 X111.24 Y110.74
G1 F1620 X107.72 Y114.26 E19.18157
G0 F6600 X107.15 Y114.26
G1 F1620 X110.67 Y110.74 E19.21193
G0 F6600 X110.11 Y110.74
G1 F1620 X106.58 Y114.26 E19.24228
G0 F6600 X106.02 Y114.26
G1 F1620 X109.61 Y110.66 E19.27329
G0 F6600 X109.33 Y110.38
G1 F1620 X105.74 Y113.97 E19.30427
G0 F6600 X105.74 Y113.41
G1 F1620 X109.26 Y109.89 E19.33460
G0 F6600 X109.26 Y109.32
G1 F1620 X105.74 Y112.84 E19.36493
G0 F6600 X105.74 Y112.28
G1 F1620 X109.26 Y108.76 E19.39526
G0 F6600 X109.26 Y108.19
G1 F1620 X105.74 Y111.71 E19.42560
G0 F6600 X105.74 Y111.14
G1 F1620 X109.26 Y107.63 E19.45593
G0 F6600 X109.26 Y107.06
G1 F1620 X105.74 Y110.58 E19.48627
G0 F6600 X105.74 Y110.01
G1 F1620 X109.26 Y106.50 E19.51660
G0 F6600 X109.26 Y105.93
G1 F1620 X105.62 Y109.57 E19.54799
G0 F6600 X105.33 Y109.29
G1 F1620 X108.88 Y105.74 E19.57859
G0 F6600 X108.32 Y105.74
G1 F1620 X104.80 Y109.26 E19.60895
G0 F6600 X104.23 Y109.26
G1 F1620 X107.75 Y105.74 E19.63930
G0 F6600 X107.19 Y105.74
G1 F1620 X103.67 Y109.26 E19.66966
G0 F6600 X103.10 Y109.26
G1 F1620 X106.62 Y105.74 E19.70001
G0 F6600 X106.05 Y105.74
G1 F1620 X102.53 Y109.26 E19.73037
G0 F6600 X101.97 Y109.26
G1 F1620 X105.49 Y105.74 E19.76072
G0 F6600 X104.92 Y105.74
G1 F1620 X101.40 Y109.26 E19.79108
G0 F6600 X100.84 Y109.26
G1 F1620 X104.52 Y105.57 E19.82287
G0 F6600 X104.26 Y105.27
G1 F1620 X100.27 Y109.26 E19.85726
G0 F6600 X99.71 Y109.26
G1 F1620 X104.26 Y104.71 E19.89653
G0 F6600 X104.26 Y104.14
G1 F1620 X99.14 Y109.26 E19.94067
G0 F6600 X98.57 Y109.26
G1 F1620 X104.26 Y103.57 E19.98970
G0 F6600 X104.26 Y103.01
G1 F1620 X98.01 Y109.26 E20.04359
G0 F6600 X97.44 Y109.26
G1 F1620 X104.26 Y102.44 E20.10237
G0 F6600 X104.26 Y101.88
G1 F1620 X96.88 Y109.26 E20.16603
G0 F6600 X96.31 Y109.26
G1 F1620 X104.26 Y101.31 E20.23456
G0 F6600 X104.25 Y100.76
G1 F1620 X95.75 Y109.26 E20.30785
G0 F6600 X95.18 Y109.26
G1 F1620 X103.70 Y100.74 E20.38133
G0 F6600 X103.14 Y100.74
G1 F1620 X90.74 Y113.13 E20.48820
G0 F6600 X90.74 Y112.57
G1 F1620 X102.57 Y100.74 E20.59020
G0 F6600 X102.00 Y100.74
G1 F1620 X90.74 Y112.00 E20.68732
G0 F6600 X90.74 Y111.43
G1 F1620 X101.44 Y100.74 E20.77957
G0 F6600 X100.87 Y100.74
G1 F1620 X90.74 Y110.87 E20.86693
G0 F6600 X90.74 Y110.30
G1 F1620 X100.31 Y100.74 E20.94942
G0 F6600 X99.74 Y100.74
G1 F1620 X90.74 Y109.74 E21.02702
G0 F6600 X90.74 Y109.17
G1 F1620 X99.43 Y100.48 E21.10198
G0 F6600 X99.26 Y100.09
G1 F1620 X90.74 Y108.61 E21.17543
G0 F6600 X90.74 Y108.04
G1 F1620 X99.26 Y99.52 E21.24889
G0 F6600 X99.26 Y98.96
G1 F1620 X90.74 Y107.47 E21.32234
G0 F6600 X90.74 Y106.91
G1 F1620 X99.26 Y98.39 E21.39580
G0 F6600 X99.26 Y97.83
G1 F1620 X90.74 Y106.34 E21.46925
G0 F6600 X90.74 Y105.78
G1 F1620 X99.26 Y97.26 E21.54270
G0 F6600 X99.26 Y96.69
G1 F1620 X90.74 Y105.21 E21.61616
G0 F6600 X90.74 Y104.65
G1 F1620 X99.26 Y96.13 E21.68962
G0 F6600 X99.08 Y95.74
G1 F1620 X90.74 Y104.08 E21.76156
G0 F6600 X90.74 Y103.52
G1 F1620 X98.52 Y95.74 E21.82863
G0 F6600 X97.95 Y95.74
G1 F1620 X90.74 Y102.95 E21.89081
G0 F6600 X90.74 Y102.38
G1 F1620 X97.39 Y95.74 E21.94811
G0 F6600 X96.82 Y95.74
G1 F1620 X90.74 Y101.82 E22.00055
G0 F6600 X90.74 Y101.25
G1 F1620 X96.25 Y95.74 E22.04810
G0 F6600 X95.69 Y95.74
G1 F1620 X90.74 Y100.69 E22.09077
G0 F6600 X90.74 Y100.12
G1 F1620 X95.12 Y95.74 E22.12856
G0 F6600 X94.62 Y95.67
G1 F1620 X90.74 Y99.56 E22.16206
G0 F6600 X90.74 Y98.99
G1 F1620 X94.34 Y95.39 E22.19311
G0 F6600 X94.26 Y94.91
G1 F1620 X90.74 Y98.43 E22.22346
G0 F6600 X90.74 Y97.86
G1 F1620 X94.26 Y94.34 E22.25380
G0 F6600 X94.26 Y93.78
G1 F1620 X90.74 Y97.29 E22.28415
G0 F6600 X90.74 Y96.73
G1 F1620 X94.26 Y93.21 E22.31449
G0 F6600 X94.26 Y92.64
G1 F1620 X90.74 Y96.16 E22.34483
G0 F6600 X90.74 Y95.60
G1 F1620 X94.26 Y92.08 E22.37518
G0 F6600 X94.26 Y91.51
G1 F1620 X90.74 Y95.03 E22.40552
G0 F6600 X90.74 Y94.46
G1 F1620 X94.26 Y90.95 E22.43587
G0 F6600 X93.90 Y90.74
G1 F1620 X90.74 Y93.90 E22.46311
G0 F6600 X90.74 Y93.33
G1 F1620 X93.33 Y90.74 E22.48547
G0 F6600 X92.77 Y90.74
G1 F1620 X90.74 Y92.77 E22.50296
G0 F6600 X90.74 Y92.20
G1 F1620 X92.20 Y90.74 E22.51557
G0 F6600 X91.64 Y90.74
G1 F1620 X90.74 Y91.64 E22.52330
G0 F6600 X90.74 Y91.07
G1 F1620 X91.07 Y90.74 E22.52616
G0 F6600 X94.26 Y110.18
G1 F1620 X90.74 Y113.70 E22.55650
G0 F6600 X90.76 Y114.24
G1 F1620 X94.26 Y110.74 E22.58667
G0 F6600 X94.26 Y111.31
G1 F1620 X91.31 Y114.26 E22.61210
G0 F6600 X91.88 Y114.26
G1 F1620 X94.26 Y111.88 E22.63265
G0 F6600 X94.26 Y112.44
G1 F1620 X92.44 Y114.26 E22.64832
G0 F6600 X93.01 Y114.26
G1 F1620 X94.26 Y113.01 E22.65911
G0 F6600 X94.26 Y113.57
G1 F1620 X93.57 Y114.26 E22.66503
G0 F6600 X94.14 Y114.26
G1 F1620 X94.26 Y114.14 E22.66606
;LAYER:2
M106 S255
G0 F8400 X94.40 Y114.40 Z0.50
;TYPE:WALL-INNER
G1 F2100 X90.60 Y114.40 E22.68924
G1 X90.60 Y90.60 E22.83436
G1 X94.40 Y90.60 E22.85754
G1 X94.40 Y95.25 E22.88588
G1 X94.75 Y95.60 E22.88891
G1 X99.40 Y95.60 E22.91725
G1 X99.40 Y100.25 E22.94560
G1 X99.75 Y100.60 E22.94863
G1 X104.40 Y100.60 E22.97698
G1 X104.40 Y105.25 E23.00532
G1 X104.75 Y105.60 E23.00835
G1 X109.40 Y105.60 E23.03669
G1 X109.40 Y110.25 E23.06503
G1 X109.75 Y110.60 E23.06807
G1 X114.40 Y110.60 E23.09641
G1 X114.40 Y114.40 E23.11959
G1 X105.60 Y114.40 E23.17324
G1 X105.60 Y109.75 E23.20159
G1 X105.25 Y109.40 E23.20462
G1 X94.75 Y109.40 E23.26862
G1 X94.40 Y109.75 E23.27165
G1 X94.40 Y114.40 E23.30000
G0 F8400 X94.80 Y114.80
;TYPE:WALL-OUTER
G1 F2100 X90.20 Y114.80 E23.32805
G1 X90.20 Y90.20 E23.47806
G1 X94.80 Y90.20 E23.50611
G1 X94.80 Y95.08 E23.53587
G1 X94.92 Y95.20 E23.53689
G1 X99.80 Y95.20 E23.56666
G1 X99.80 Y100.08 E23.59643
G1 X99.92 Y100.20 E23.59744
G1 X104.80 Y100.20 E23.62722
G1 X104.80 Y105.08 E23.65699
G1 X104.92 Y105.20 E23.65800
G1 X109.80 Y105.20 E23.68777
G1 X109.80 Y110.08 E23.71754
G1 X109.92 Y110.20 E23.71855
G1 X114.80 Y110.20 E23.74833
G1 X114.80 Y114.80 E23.77638
G1 X105.20 Y114.80 E23.83491
G1 X105.20 Y109.92 E23.86469
G1 X105.08 Y109.80 E23.86570
G1 X94.92 Y109.80 E23.92768
G1 X94.80 Y109.92 E23.92869
G1 X94.80 Y114.80 E23.95846
G0 F8400 X94.26 Y114.07
;TYPE:FILL
G1 F2100 X90.74 Y110.55 E23.98883
G0 F8400 X90.74 Y109.98
G1 F2100 X94.26 Y113.50 E24.01918
G0 F8400 X94.26 Y112.94
G1 F2100 X90.74 Y109.42 E24.04955
G0 F8400 X90.74 Y108.85
G1 F2100 X94.26 Y112.37 E24.07991
G0 F8400 X94.26 Y111.80
G1 F2100 X90.74 Y108.28 E24.11027
G0 F8400 X90.74 Y107.72
G1 F2100 X94.26 Y111.24 E24.14064
G0 F8400 X94.26 Y110.67
G1 F2100 X90.74 Y107.15 E24.17100
G0 F8400 X90.74 Y106.59
