;Generated with Cura_SteamEngine 13.06.4
M109 S210     ;Heatup to 210C
G21           ;metric values
G90           ;absolute positioning
G28           ;Home
G1 Z15.0 F300 ;move the platform down 15mm
G92 E0        ;zero the extruded length
G1 F200 E5    ;extrude 5mm of feed stock
G92 E0        ;zero the extruded length again

;total_layers=76
;LAYER:0
M107
G0 F1200 X73.65 Y73.79 Z0.30
;TYPE:SKIRT
G1 X73.79 Y73.65 E0.00162
G1 X75.44 Y72.10 E0.02090
G1 X75.58 Y71.97 E0.02247
G1 X77.32 Y70.52 E0.04175
G1 X77.47 Y70.40 E0.04334
G1 X79.30 Y69.06 E0.06263
G1 X79.46 Y68.95 E0.06423
G1 X81.36 Y67.72 E0.08351
G1 X81.52 Y67.62 E0.08509
G1 X83.50 Y66.50 E0.10435
G1 X83.67 Y66.42 E0.10594
G1 X85.71 Y65.42 E0.12522
G1 X85.88 Y65.35 E0.12683
G1 X87.98 Y64.48 E0.14611
G1 X88.15 Y64.41 E0.14770
G1 X90.30 Y63.67 E0.16697
G1 X90.48 Y63.61 E0.16857
G1 X92.67 Y63.00 E0.18784
G1 X92.85 Y62.96 E0.18943
G1 X95.07 Y62.48 E0.20871
G1 X95.26 Y62.45 E0.21031
G1 X97.50 Y62.11 E0.22959
G1 X97.69 Y62.08 E0.23117
G1 X99.95 Y61.88 E0.25045
G1 X100.14 Y61.87 E0.25205
G1 X102.41 Y61.80 E0.27132
G1 X102.59 Y61.80 E0.27291
G1 X104.86 Y61.87 E0.29219
G1 X105.05 Y61.88 E0.29379
G1 X107.31 Y62.08 E0.31307
G1 X107.50 Y62.11 E0.31465
G1 X109.74 Y62.45 E0.33392
G1 X109.93 Y62.48 E0.33553
G1 X112.15 Y62.96 E0.35481
G1 X112.33 Y63.00 E0.35639
G1 X114.52 Y63.61 E0.37566
G1 X114.70 Y63.67 E0.37726
G1 X116.84 Y64.41 E0.39654
G1 X117.02 Y64.48 E0.39812
G1 X119.12 Y65.35 E0.41741
G1 X119.29 Y65.42 E0.41902
G1 X121.33 Y66.42 E0.43830
G1 X121.50 Y66.50 E0.43988
G1 X123.47 Y67.62 E0.45915
G1 X123.63 Y67.72 E0.46072
G1 X125.54 Y68.95 E0.48001
G1 X125.70 Y69.06 E0.48161
G1 X127.53 Y70.40 E0.50089
G1 X127.68 Y70.52 E0.50249
G1 X129.42 Y71.97 E0.52177
G1 X129.56 Y72.10 E0.52334
G1 X131.21 Y73.65 E0.54262
G1 X131.35 Y73.79 E0.54424
G1 X132.90 Y75.44 E0.56351
G1 X133.03 Y75.58 E0.56508
G1 X134.48 Y77.32 E0.58437
G1 X134.60 Y77.47 E0.58596
G1 X135.94 Y79.30 E0.60525
G1 X136.05 Y79.46 E0.60684
G1 X137.28 Y81.36 E0.62613
G1 X137.38 Y81.52 E0.62770
G1 X138.49 Y83.50 E0.64697
G1 X138.58 Y83.67 E0.64855
G1 X139.58 Y85.71 E0.66783
G1 X139.65 Y85.88 E0.66945
G1 X140.52 Y87.98 E0.68873
G1 X140.59 Y88.15 E0.69032
G1 X141.33 Y90.30 E0.70959
G1 X141.39 Y90.48 E0.71119
G1 X141.99 Y92.67 E0.73046
G1 X142.04 Y92.85 E0.73204
G1 X142.52 Y95.07 E0.75132
G1 X142.55 Y95.26 E0.75293
G1 X142.89 Y97.50 E0.77220
G1 X142.91 Y97.69 E0.77378
G1 X143.12 Y99.95 E0.79306
G1 X143.13 Y100.14 E0.79466
G1 X143.20 Y102.41 E0.81394
G1 X143.20 Y102.59 E0.81553
G1 X143.13 Y104.86 E0.83480
G1 X143.12 Y105.05 E0.83640
G1 X142.91 Y107.31 E0.85568
G1 X142.89 Y107.50 E0.85726
G1 X142.55 Y109.74 E0.87654
G1 X142.52 Y109.93 E0.87814
G1 X142.04 Y112.15 E0.89743
G1 X141.99 Y112.33 E0.89901
G1 X141.39 Y114.52 E0.91828
G1 X141.33 Y114.70 E0.91988
G1 X140.59 Y116.84 E0.93915
G1 X140.52 Y117.02 E0.94074
G1 X139.65 Y119.12 E0.96002
G1 X139.58 Y119.29 E0.96163
G1 X138.58 Y121.33 E0.98091
G1 X138.49 Y121.50 E0.98250
G1 X137.38 Y123.47 E1.00176
G1 X137.28 Y123.63 E1.00334
G1 X136.05 Y125.54 E1.02262
G1 X135.94 Y125.70 E1.02422
G1 X134.60 Y127.53 E1.04351
G1 X134.48 Y127.68 E1.04510
G1 X133.03 Y129.42 E1.06439
G1 X132.90 Y129.56 E1.06596
G1 X131.35 Y131.21 E1.08523
G1 X131.21 Y131.35 E1.08685
G1 X129.56 Y132.90 E1.10613
G1 X129.42 Y133.03 E1.10770
G1 X127.68 Y134.48 E1.12698
G1 X127.53 Y134.60 E1.12857
G1 X125.70 Y135.94 E1.14786
G1 X125.54 Y136.05 E1.14946
G1 X123.63 Y137.28 E1.16874
G1 X123.47 Y137.38 E1.17032
G1 X121.50 Y138.49 E1.18959
G1 X121.33 Y138.58 E1.19117
G1 X119.29 Y139.58 E1.21045
G1 X119.12 Y139.65 E1.21206
G1 X117.02 Y140.52 E1.23134
G1 X116.84 Y140.59 E1.23293
G1 X114.70 Y141.33 E1.25220
G1 X114.52 Y141.39 E1.25380
G1 X112.33 Y141.99 E1.27307
G1 X112.15 Y142.04 E1.27466
G1 X109.93 Y142.52 E1.29394
G1 X109.74 Y142.55 E1.29554
G1 X107.50 Y142.89 E1.31482
G1 X107.31 Y142.91 E1.31640
G1 X105.05 Y143.12 E1.33568
G1 X104.86 Y143.13 E1.33728
G1 X102.59 Y143.20 E1.35656
G1 X102.41 Y143.20 E1.35814
G1 X100.14 Y143.13 E1.37742
G1 X99.95 Y143.12 E1.37902
G1 X97.69 Y142.91 E1.39830
G1 X97.50 Y142.89 E1.39988
G1 X95.26 Y142.55 E1.41916
G1 X95.07 Y142.52 E1.42076
G1 X92.85 Y142.04 E1.44004
G1 X92.67 Y141.99 E1.44163
G1 X90.48 Y141.39 E1.46090
G1 X90.30 Y141.33 E1.46250
G1 X88.15 Y140.59 E1.48177
G1 X87.98 Y140.52 E1.48335
G1 X85.88 Y139.65 E1.50264
G1 X85.71 Y139.58 E1.50425
G1 X83.67 Y138.58 E1.52353
G1 X83.50 Y138.49 E1.52511
G1 X81.52 Y137.38 E1.54438
G1 X81.36 Y137.28 E1.54596
G1 X79.46 Y136.05 E1.56524
G1 X79.30 Y135.94 E1.56684
G1 X77.47 Y134.60 E1.58613
G1 X77.32 Y134.48 E1.58772
G1 X75.58 Y133.03 E1.60700
G1 X75.44 Y132.90 E1.60857
G1 X73.79 Y131.35 E1.62785
G1 X73.65 Y131.21 E1.62947
G1 X72.10 Y129.56 E1.64874
G1 X71.97 Y129.42 E1.65031
G1 X70.52 Y127.68 E1.66960
G1 X70.40 Y127.53 E1.67119
G1 X69.06 Y125.70 E1.69048
G1 X68.95 Y125.54 E1.69208
G1 X67.72 Y123.63 E1.71136
G1 X67.62 Y123.47 E1.71294
G1 X66.50 Y121.50 E1.73220
G1 X66.42 Y121.33 E1.73378
G1 X65.42 Y119.29 E1.75307
G1 X65.35 Y119.12 E1.75468
G1 X64.48 Y117.02 E1.77396
G1 X64.41 Y116.84 E1.77555
G1 X63.67 Y114.70 E1.79482
G1 X63.61 Y114.52 E1.79642
G1 X63.00 Y112.33 E1.81569
G1 X62.96 Y112.15 E1.81727
G1 X62.48 Y109.93 E1.83655
G1 X62.45 Y109.74 E1.83816
G1 X62.11 Y107.50 E1.85743
G1 X62.08 Y107.31 E1.85902
G1 X61.88 Y105.05 E1.87830
G1 X61.87 Y104.86 E1.87989
G1 X61.80 Y102.59 E1.89917
G1 X61.80 Y102.41 E1.90076
G1 X61.87 Y100.14 E1.92004
G1 X61.88 Y99.95 E1.92164
G1 X62.08 Y97.69 E1.94092
G1 X62.11 Y97.50 E1.94250
G1 X62.45 Y95.26 E1.96177
G1 X62.48 Y95.07 E1.96338
G1 X62.96 Y92.85 E1.98266
G1 X63.00 Y92.67 E1.98424
G1 X63.61 Y90.48 E2.00351
G1 X63.67 Y90.30 E2.00511
G1 X64.41 Y88.15 E2.02438
G1 X64.48 Y87.98 E2.02597
G1 X65.35 Y85.88 E2.04525
G1 X65.42 Y85.71 E2.04686
G1 X66.42 Y83.67 E2.06615
G1 X66.50 Y83.50 E2.06773
G1 X67.62 Y81.52 E2.08700
G1 X67.72 Y81.36 E2.08857
G1 X68.95 Y79.46 E2.10786
G1 X69.06 Y79.30 E2.10945
G1 X70.40 Y77.47 E2.12874
G1 X70.52 Y77.32 E2.13033
G1 X71.97 Y75.58 E2.14962
G1 X72.10 Y75.44 E2.15119
G1 X73.65 Y73.79 E2.17046
G1 F2700 E2.16646
G0 F1200 X78.53 Y78.53
;TYPE:WALL-INNER
G1 F2700 E2.17046
G1 F1200 X80.02 Y77.13 E2.18784
G1 X81.59 Y75.81 E2.20523
G1 X83.24 Y74.60 E2.22258
G1 X84.96 Y73.49 E2.23997
G1 X86.76 Y72.48 E2.25748
G1 X88.59 Y71.58 E2.27479
G1 X90.47 Y70.81 E2.29208
G1 X92.41 Y70.13 E2.30951
G1 X94.38 Y69.59 E2.32685
G1 X96.40 Y69.15 E2.34437
G1 X98.40 Y68.85 E2.36158
G1 X100.46 Y68.66 E2.37908
G1 X102.50 Y68.60 E2.39643
G1 X104.54 Y68.66 E2.41379
G1 X106.60 Y68.85 E2.43129
G1 X108.60 Y69.15 E2.44850
G1 X110.62 Y69.59 E2.46601
G1 X112.59 Y70.13 E2.48336
G1 X114.53 Y70.81 E2.50079
G1 X116.41 Y71.58 E2.51807
G1 X118.24 Y72.48 E2.53538
G1 X120.04 Y73.49 E2.55290
G1 X121.76 Y74.60 E2.57029
G1 X123.41 Y75.81 E2.58764
G1 X124.98 Y77.13 E2.60503
G1 X126.47 Y78.53 E2.62240
G1 X127.87 Y80.02 E2.63978
G1 X129.19 Y81.59 E2.65717
G1 X130.40 Y83.24 E2.67452
G1 X131.51 Y84.96 E2.69191
G1 X132.53 Y86.76 E2.70947
G1 X133.42 Y88.59 E2.72673
G1 X134.20 Y90.47 E2.74402
G1 X134.87 Y92.41 E2.76145
G1 X135.41 Y94.38 E2.77879
G1 X135.85 Y96.40 E2.79631
G1 X136.15 Y98.39 E2.81345
G1 X136.34 Y100.46 E2.83102
G1 X136.40 Y102.50 E2.84837
G1 X136.34 Y104.54 E2.86573
G1 X136.15 Y106.60 E2.88323
G1 X135.85 Y108.60 E2.90044
G1 X135.41 Y110.62 E2.91796
G1 X134.87 Y112.59 E2.93530
G1 X134.20 Y114.53 E2.95273
G1 X133.42 Y116.41 E2.97001
G1 X132.53 Y118.24 E2.98728
G1 X131.51 Y120.04 E3.00484
G1 X130.40 Y121.76 E3.02223
G1 X129.19 Y123.41 E3.03958
G1 X127.87 Y124.98 E3.05697
G1 X126.47 Y126.47 E3.07434
G1 X124.98 Y127.87 E3.09172
G1 X123.41 Y129.19 E3.10911
G1 X121.76 Y130.40 E3.12646
G1 X120.04 Y131.51 E3.14385
G1 X118.24 Y132.52 E3.16136
G1 X116.41 Y133.42 E3.17867
G1 X114.53 Y134.20 E3.19596
G1 X112.59 Y134.87 E3.21339
G1 X110.62 Y135.41 E3.23073
G1 X108.60 Y135.85 E3.24825
G1 X106.60 Y136.15 E3.26546
G1 X104.54 Y136.34 E3.28296
G1 X102.50 Y136.40 E3.30031
G1 X100.46 Y136.34 E3.31767
G1 X98.40 Y136.15 E3.33517
G1 X96.40 Y135.85 E3.35238
G1 X94.38 Y135.41 E3.36990
G1 X92.41 Y134.87 E3.38724
G1 X90.47 Y134.20 E3.40467
G1 X88.59 Y133.42 E3.42195
G1 X86.76 Y132.52 E3.43927
G1 X84.96 Y131.51 E3.45678
G1 X83.24 Y130.40 E3.47417
G1 X81.59 Y129.19 E3.49152
G1 X80.02 Y127.87 E3.50891
G1 X78.53 Y126.47 E3.52628
G1 X77.13 Y124.98 E3.54366
G1 X75.81 Y123.41 E3.56105
G1 X74.60 Y121.76 E3.57840
G1 X73.49 Y120.04 E3.59579
G1 X72.47 Y118.24 E3.61335
G1 X71.58 Y116.41 E3.63061
G1 X70.81 Y114.53 E3.64790
G1 X70.13 Y112.59 E3.66533
G1 X69.59 Y110.62 E3.68267
G1 X69.15 Y108.60 E3.70019
G1 X68.85 Y106.60 E3.71740
G1 X68.66 Y104.54 E3.73490
G1 X68.60 Y102.50 E3.75225
G1 X68.66 Y100.46 E3.76961
G1 X68.85 Y98.39 E3.78718
G1 X69.15 Y96.40 E3.80432
G1 X69.59 Y94.38 E3.82184
G1 X70.13 Y92.41 E3.83918
G1 X70.81 Y90.47 E3.85661
G1 X71.58 Y88.59 E3.87389
G1 X72.47 Y86.76 E3.89116
G1 X73.49 Y84.96 E3.90872
G1 X74.60 Y83.24 E3.92611
G1 X75.81 Y81.59 E3.94346
G1 X77.13 Y80.02 E3.96085
G1 X78.53 Y78.53 E3.97822
G0 X78.25 Y78.25
;TYPE:WALL-OUTER
G1 X79.75 Y76.83 E3.99576
G1 X81.35 Y75.50 E4.01341
G1 X83.01 Y74.27 E4.03094
G1 X84.76 Y73.14 E4.04863
G1 X86.56 Y72.13 E4.06612
G1 X88.43 Y71.22 E4.08380
G1 X90.34 Y70.43 E4.10136
G1 X92.29 Y69.75 E4.11888
G1 X94.29 Y69.20 E4.13650
G1 X96.32 Y68.76 E4.15412
G1 X98.37 Y68.45 E4.17173
G1 X100.43 Y68.26 E4.18924
G1 X102.50 Y68.20 E4.20686
G1 X104.57 Y68.26 E4.22448
G1 X106.63 Y68.45 E4.24199
G1 X108.68 Y68.76 E4.25960
G1 X110.71 Y69.20 E4.27722
G1 X112.71 Y69.75 E4.29485
G1 X114.66 Y70.43 E4.31236
G1 X116.57 Y71.22 E4.32992
G1 X118.44 Y72.13 E4.34761
G1 X120.24 Y73.14 E4.36509
G1 X121.99 Y74.27 E4.38278
G1 X123.65 Y75.50 E4.40031
G1 X125.25 Y76.83 E4.41796
G1 X126.75 Y78.25 E4.43550
G1 X128.18 Y79.76 E4.45313
G1 X129.51 Y81.35 E4.47073
G1 X130.73 Y83.01 E4.48821
G1 X131.86 Y84.76 E4.50590
G1 X132.87 Y86.56 E4.52339
G1 X133.78 Y88.43 E4.54107
G1 X134.57 Y90.34 E4.55866
G1 X135.25 Y92.29 E4.57615
G1 X135.80 Y94.30 E4.59383
G1 X136.24 Y96.32 E4.61142
G1 X136.55 Y98.37 E4.62901
G1 X136.74 Y100.42 E4.64650
G1 X136.80 Y102.51 E4.66418
G1 X136.74 Y104.57 E4.68175
G1 X136.55 Y106.63 E4.69926
G1 X136.24 Y108.68 E4.71685
G1 X135.80 Y110.70 E4.73443
G1 X135.25 Y112.71 E4.75212
G1 X134.57 Y114.66 E4.76961
G1 X133.78 Y116.57 E4.78719
G1 X132.87 Y118.44 E4.80488
G1 X131.86 Y120.24 E4.82236
G1 X130.73 Y121.99 E4.84001
G1 X129.51 Y123.65 E4.85754
G1 X128.18 Y125.24 E4.87513
G1 X126.75 Y126.75 E4.89277
G1 X125.25 Y128.17 E4.91030
G1 X123.65 Y129.50 E4.92796
G1 X121.99 Y130.73 E4.94548
G1 X120.24 Y131.86 E4.96318
G1 X118.44 Y132.87 E4.98066
G1 X116.57 Y133.78 E4.99835
G1 X114.66 Y134.57 E5.01590
G1 X112.71 Y135.25 E5.03342
G1 X110.71 Y135.80 E5.05104
G1 X108.68 Y136.24 E5.06867
G1 X106.63 Y136.55 E5.08628
G1 X104.57 Y136.74 E5.10379
G1 X102.50 Y136.80 E5.12141
G1 X100.43 Y136.74 E5.13903
G1 X98.37 Y136.55 E5.15653
G1 X96.32 Y136.24 E5.17414
G1 X94.29 Y135.80 E5.19177
G1 X92.29 Y135.25 E5.20939
G1 X90.34 Y134.57 E5.22691
G1 X88.43 Y133.78 E5.24447
G1 X86.56 Y132.87 E5.26215
G1 X84.76 Y131.86 E5.27964
G1 X83.01 Y130.73 E5.29733
G1 X81.35 Y129.50 E5.31486
G1 X79.75 Y128.17 E5.33251
G1 X78.25 Y126.75 E5.35004
G1 X76.82 Y125.24 E5.36768
G1 X75.50 Y123.65 E5.38527
G1 X74.27 Y121.99 E5.40280
G1 X73.14 Y120.24 E5.42045
G1 X72.13 Y118.44 E5.43793
G1 X71.22 Y116.57 E5.45562
G1 X70.43 Y114.66 E5.47320
G1 X69.75 Y112.71 E5.49069
G1 X69.19 Y110.70 E5.50838
G1 X68.76 Y108.68 E5.52597
G1 X68.45 Y106.63 E5.54355
G1 X68.26 Y104.57 E5.56106
G1 X68.20 Y102.51 E5.57863
G1 X68.26 Y100.42 E5.59632
G1 X68.45 Y98.37 E5.61381
G1 X68.76 Y96.32 E5.63139
G1 X69.19 Y94.30 E5.64898
G1 X69.75 Y92.29 E5.66666
G1 X70.43 Y90.34 E5.68416
G1 X71.22 Y88.43 E5.70174
G1 X72.13 Y86.56 E5.71943
G1 X73.14 Y84.76 E5.73691
G1 X74.27 Y83.01 E5.75460
G1 X75.50 Y81.35 E5.77209
G1 X76.82 Y79.76 E5.78968
G1 X78.25 Y78.25 E5.80732
G0 X78.66 Y78.60
;TYPE:FILL
G1 X126.40 Y126.34 E6.38043
G0 X126.11 Y126.62
G1 X78.38 Y78.89 E6.95338
G0 X78.11 Y79.18
G1 X125.82 Y126.89 E7.52613
G0 X125.53 Y127.17
G1 X77.83 Y79.47 E8.09867
G0 X77.56 Y79.76
G1 X125.23 Y127.44 E8.67101
G0 X124.94 Y127.71
G1 X77.28 Y80.05 E9.24314
G0 X77.02 Y80.36
G1 X124.64 Y127.97 E9.81473
G0 X124.33 Y128.23
G1 X76.76 Y80.67 E10.38570
G0 X76.51 Y80.98
G1 X124.02 Y128.49 E10.95605
G0 X123.71 Y128.75
G1 X76.25 Y81.29 E11.52578
G0 X75.99 Y81.59
G1 X123.40 Y129.00 E12.09490
G0 X123.08 Y129.25
G1 X75.75 Y81.91 E12.66311
G0 X75.51 Y82.24
G1 X122.76 Y129.49 E13.23028
G0 X122.43 Y129.73
G1 X75.27 Y82.57 E13.79642
G0 X75.03 Y82.89
G1 X122.11 Y129.97 E14.36154
G0 X121.78 Y130.21
G1 X74.79 Y83.22 E14.92563
G0 X74.56 Y83.56
G1 X121.44 Y130.43 E15.48838
G0 X121.10 Y130.66
G1 X74.34 Y83.90 E16.04966
G0 X74.12 Y84.24
G1 X120.75 Y130.88 E16.60949
G0 X120.41 Y131.10
G1 X73.90 Y84.59 E17.16784
G0 X73.67 Y84.93
G1 X120.07 Y131.32 E17.72474
G0 X119.71 Y131.53
G1 X73.46 Y85.29 E18.27988
G0 X73.26 Y85.65
G1 X119.35 Y131.74 E18.83311
G0 X118.99 Y131.94
G1 X73.06 Y86.01 E19.38446
G0 X72.85 Y86.37
G1 X118.62 Y132.14 E19.93390
G0 X118.26 Y132.35
G1 X72.65 Y86.73 E20.48146
G0 X72.46 Y87.11
G1 X117.89 Y132.54 E21.02678
G0 X117.51 Y132.72
G1 X72.27 Y87.49 E21.56977
G0 X72.09 Y87.87
G1 X117.13 Y132.91 E22.11042
G0 X116.75 Y133.10
G1 X71.90 Y88.25 E22.64874
G0 X71.72 Y88.63
G1 X116.37 Y133.28 E23.18473
G0 X115.97 Y133.45
G1 X71.55 Y89.03 E23.71790
G0 X71.39 Y89.43
G1 X115.57 Y133.61 E24.24826
G0 X115.17 Y133.78
G1 X71.22 Y89.83 E24.77580
G0 X71.05 Y90.23
G1 X114.77 Y133.94 E25.30053
G0 X114.36 Y134.10
G1 X70.89 Y90.64 E25.82232
G0 X70.75 Y91.06
G1 X113.94 Y134.25 E26.34081
G0 X113.52 Y134.39
G1 X70.60 Y91.48 E26.85600
G0 X70.46 Y91.90
G1 X113.10 Y134.54 E27.36788
G0 X112.68 Y134.68
G1 X70.31 Y92.32 E27.87646
G0 X70.18 Y92.75
G1 X112.24 Y134.81 E28.38136
G0 X111.80 Y134.94
G1 X70.06 Y93.20 E28.88242
G0 X69.94 Y93.64
G1 X111.36 Y135.06 E29.37966
G0 X110.92 Y135.18
G1 X69.81 Y94.08 E29.87306
G0 X69.69 Y94.53
G1 X110.47 Y135.30 E30.36249
G0 X110.00 Y135.40
G1 X69.60 Y95.00 E30.84753
G0 X69.50 Y95.46
G1 X109.54 Y135.50 E31.32819
G0 X109.07 Y135.60
G1 X69.40 Y95.93 E31.80445
G0 X69.29 Y96.39
G1 X108.61 Y135.70 E32.27633
G0 X108.11 Y135.78
G1 X69.22 Y96.88 E32.74322
G0 X69.14 Y97.37
G1 X107.62 Y135.85 E33.20512
G0 X107.13 Y135.93
G1 X69.07 Y97.86 E33.66203
G0 X69.00 Y98.35
G1 X106.64 Y136.00 E34.11395
G0 X106.13 Y136.05
G1 X68.94 Y98.87 E34.56030
G0 X68.90 Y99.39
G1 X105.61 Y136.10 E35.00100
G0 X105.09 Y136.15
G1 X68.85 Y99.91 E35.43604
G0 X68.80 Y100.42
G1 X104.57 Y136.20 E35.86544
G0 X104.03 Y136.21
G1 X68.79 Y100.97 E36.28847
G0 X68.77 Y101.52
G1 X103.48 Y136.23 E36.70512
G0 X102.93 Y136.25
G1 X68.75 Y102.07 E37.11537
G0 X68.74 Y102.63
G1 X102.37 Y136.26 E37.51905
G0 X101.79 Y136.24
G1 X68.76 Y103.21 E37.91551
G0 X68.78 Y103.79
G1 X101.20 Y136.22 E38.30475
G0 X100.62 Y136.20
G1 X68.80 Y104.38 E38.68676
G0 X68.84 Y104.99
G1 X100.01 Y136.16 E39.06091
G0 X99.39 Y136.10
G1 X68.90 Y105.61 E39.42690
G0 X68.95 Y106.23
G1 X98.76 Y136.04 E39.78475
G0 X98.12 Y135.96
G1 X69.03 Y106.88 E40.13393
G0 X69.13 Y107.54
G1 X97.45 Y135.86 E40.47389
G0 X96.79 Y135.76
G1 X69.24 Y108.21 E40.80461
G0 X69.36 Y108.90
G1 X96.10 Y135.64 E41.12555
G0 X95.38 Y135.48
G1 X69.51 Y109.62 E41.43598
G0 X69.67 Y110.34
G1 X94.65 Y135.33 E41.73593
G0 X93.89 Y135.13
G1 X69.87 Y111.10 E42.02434
G0 X70.08 Y111.89
G1 X93.11 Y134.91 E42.30072
G0 X92.31 Y134.68
G1 X70.31 Y112.68 E42.56479
G0 X70.61 Y113.55
G1 X91.45 Y134.38 E42.81488
G0 X90.58 Y134.09
G1 X70.91 Y114.41 E43.05101
G0 X71.31 Y115.37
G1 X89.62 Y133.69 E43.27092
G0 X88.66 Y133.29
G1 X71.70 Y116.34 E43.47447
G0 X72.24 Y117.44
G1 X87.56 Y132.76 E43.65835
G0 X86.39 Y132.15
G1 X72.84 Y118.61 E43.82096
G0 X73.57 Y119.90
G1 X85.09 Y131.42 E43.95917
G0 X83.51 Y130.41
G1 X74.59 Y121.49 E44.06625
G0 X76.25 Y123.71
G1 X81.29 Y128.75 E44.12666
G0 X126.67 Y126.05
G1 X78.95 Y78.32 E44.69956
G0 X79.24 Y78.05
G1 X126.95 Y125.76 E45.27226
G0 X127.22 Y125.47
G1 X79.53 Y77.78 E45.84476
G0 X79.82 Y77.50
G1 X127.50 Y125.18 E46.41706
G0 X127.77 Y124.89
G1 X80.11 Y77.23 E46.98914
G0 X80.42 Y76.97
G1 X128.03 Y124.58 E47.56060
G0 X128.28 Y124.27
