;Generated with Cura_SteamEngine 13.06.4
G1 F2700 E-0.00400
G0 F12000 X102.50 Y102.50 Z5.00
;total_layers=59
;LAYER:0
M107
G0 F5160 X102.70 Y94.58 Z0.30
;TYPE:SKIRT
G1 F2700 E0.00000
G1 F1260 X105.02 Y92.26 E0.06009
G1 X111.35 Y92.26 E0.17586
G1 X114.98 Y95.89 E0.26976
G1 X114.99 Y102.23 E0.38583
G1 X114.73 Y102.50 E0.39259
G1 X114.99 Y102.76 E0.39943
G1 X115.00 Y109.10 E0.51550
G1 X111.37 Y112.74 E0.60953
G1 X105.01 Y112.74 E0.72575
G1 X102.70 Y110.43 E0.78557
G1 X100.39 Y112.74 E0.84536
G1 X94.04 Y112.74 E0.96158
G1 X90.41 Y109.11 E1.05549
G1 X90.40 Y102.77 E1.17156
G1 X90.67 Y102.49 E1.17861
G1 X90.42 Y102.24 E1.18513
G1 X90.42 Y95.90 E1.30120
G1 X94.05 Y92.26 E1.39522
G1 X100.38 Y92.26 E1.51100
G1 X102.70 Y94.58 E1.57112
G1 F2700 E1.56712
G0 F5160 X97.62 Y105.53
;TYPE:WALL-OUTER
G1 F2700 E1.57112
G1 F1260 X97.62 Y106.34 E1.58592
G1 X96.81 Y106.34 E1.60087
G1 X96.80 Y105.53 E1.61567
G1 X97.62 Y105.53 E1.63061
G0 F5160 X97.41 Y105.83
G1 F2700 E1.62661
G0 F5160 X97.61 Y99.47
G1 F2700 E1.63061
G1 F1260 X96.82 Y99.47 E1.64512
G1 X96.82 Y98.66 E1.65992
G1 X97.61 Y98.66 E1.67443
G1 X97.61 Y99.47 E1.68922
G0 F5160 X97.40 Y99.17
G1 F2700 E1.68522
G0 F5160 X107.79 Y99.47
G1 F2700 E1.68922
G1 F1260 X107.79 Y98.66 E1.70402
G1 X108.59 Y98.66 E1.71853
G1 X108.59 Y99.47 E1.73333
G1 X107.79 Y99.47 E1.74784
G0 F5160 X108.10 Y99.26
G1 F2700 E1.74384
G0 F5160 X107.78 Y105.53
G1 F2700 E1.74784
G1 F1260 X108.60 Y105.53 E1.76278
G1 X108.60 Y106.34 E1.77758
G1 X107.78 Y106.34 E1.79253
G1 X107.78 Y105.53 E1.80733
G0 F5160 X107.99 Y105.83
;LAYER:1
G0 F2400 X107.63 Y105.53 Z0.40
;TYPE:WALL-OUTER
G1 F600 X108.75 Y105.53 E1.81413
G1 X108.75 Y106.34 E1.81907
G1 X107.63 Y106.34 E1.82587
G1 X107.63 Y105.53 E1.83080
G0 F2400 X107.84 Y105.83
G1 F2700 E1.82680
G0 F2400 X107.64 Y99.47
G1 F2700 E1.83080
G1 F600 X107.64 Y98.66 E1.83574
G1 X108.74 Y98.66 E1.84240
G1 X108.74 Y99.47 E1.84734
G1 X107.64 Y99.47 E1.85400
G0 F2400 X107.94 Y99.26
G1 F2700 E1.85000
G0 F2400 X97.76 Y99.47
G1 F2700 E1.85400
G1 F600 X96.67 Y99.47 E1.86066
G1 X96.67 Y98.66 E1.86560
G1 X97.76 Y98.66 E1.87226
G1 X97.76 Y99.47 E1.87720
G0 F2400 X97.55 Y99.17
G1 F2700 E1.87320
G0 F2400 X97.77 Y105.53
G1 F2700 E1.87720
G1 F600 X97.77 Y106.34 E1.88213
G1 X96.66 Y106.34 E1.88893
G1 X96.65 Y105.53 E1.89386
G1 X97.77 Y105.53 E1.90066
G0 F2400 X97.56 Y105.83
;Small layer, adding delay of 2.848236
G1 F2700 E1.89666
G0 F12000 X97.56 Y105.83 Z3.40
G0 X117.56 Y105.83
G4 P2848
;LAYER:2
M106 S255
G0 F2400 X108.90 Y105.53 Z0.50
;TYPE:WALL-OUTER
G1 F2700 E1.90066
G1 F600 X108.90 Y106.34 E1.90559
G1 X107.48 Y106.34 E1.91422
G1 X107.48 Y105.53 E1.91915
G1 X108.90 Y105.53 E1.92777
G0 F2400 X108.75 Y105.88
;TYPE:FILL
G1 F600 X108.52 Y105.93 E1.92961
G1 X107.80 Y105.78 E1.93417
G1 X107.94 Y106.20 E1.93690
G0 F2400 X107.94 Y106.04
G1 F2700 E1.93290
G0 F2400 X107.50 Y99.47
;TYPE:WALL-OUTER
G1 F2700 E1.93690
G1 F600 X107.49 Y98.66 E1.94183
G1 X108.89 Y98.66 E1.95032
G1 X108.89 Y99.47 E1.95526
G1 X107.50 Y99.47 E1.96375
G0 F2400 X107.95 Y99.33
;TYPE:FILL
G1 F600 X107.81 Y98.90 E1.96650
G1 X108.63 Y99.16 E1.97105
G1 X108.56 Y98.80 E1.97329
G0 F2400 X108.56 Y98.96
G1 F2700 E1.96929
G0 F2400 X97.91 Y98.66
;TYPE:WALL-OUTER
G1 F2700 E1.97329
G1 F600 X97.91 Y99.47 E1.97822
G1 X96.52 Y99.47 E1.98671
G1 X96.52 Y98.66 E1.99165
G1 X97.91 Y98.66 E2.00014
G0 F2400 X97.77 Y98.99
;TYPE:FILL
G1 F600 X97.56 Y99.06 E2.00178
G1 X96.83 Y98.90 E2.00633
G1 X96.98 Y99.33 E2.00905
G0 F2400 X96.98 Y99.17
G1 F2700 E2.00505
G0 F2400 X96.51 Y105.53
;TYPE:WALL-OUTER
G1 F2700 E2.00905
G1 F600 X97.92 Y105.53 E2.01767
G1 X97.92 Y106.34 E2.02260
G1 X96.51 Y106.34 E2.03122
G1 X96.51 Y105.53 E2.03615
G0 F2400 X96.64 Y105.88
;TYPE:FILL
G1 F600 X96.98 Y105.93 E2.03890
G1 X97.65 Y106.04 E2.04347
G1 X97.57 Y105.67 E2.04579
G0 F2400 X97.57 Y105.83
;Small layer, adding delay of 1.682790
G1 F2700 E2.04179
G0 F12000 X97.57 Y105.83 Z3.50
G0 X117.57 Y105.83
G4 P1682
;LAYER:3
G0 F2400 X109.01 Y105.53 Z0.60
;TYPE:WALL-OUTER
G1 F2700 E2.04579
G1 F600 X109.02 Y106.34 E2.05072
G1 X107.36 Y106.34 E2.06085
G1 X107.36 Y105.53 E2.06578
G1 X109.01 Y105.53 E2.07588
G0 F2400 X108.87 Y105.89
;TYPE:FILL
G1 F600 X108.54 Y105.93 E2.07859
G1 X107.75 Y106.17 E2.08315
G1 X107.96 Y105.67 E2.08643
G0 F2400 X107.96 Y105.83
G1 F2700 E2.08243
G0 F2400 X107.36 Y99.47
;TYPE:WALL-OUTER
G1 F2700 E2.08643
G1 F600 X107.36 Y98.66 E2.09137
G1 X109.02 Y98.66 E2.10145
G1 X109.02 Y99.47 E2.10638
G1 X107.36 Y99.47 E2.11646
G0 F2400 X107.50 Y99.25
;TYPE:FILL
G1 F600 X107.97 Y99.07 E2.12035
G1 X108.70 Y98.91 E2.12491
G1 X108.56 Y99.33 E2.12763
G0 F2400 X108.56 Y99.17
G1 F2700 E2.12363
G0 F2400 X98.04 Y99.47
;TYPE:WALL-OUTER
G1 F2700 E2.12763
G1 F600 X96.39 Y99.47 E2.13771
G1 X96.39 Y98.66 E2.14264
G1 X98.04 Y98.66 E2.15272
G1 X98.04 Y99.47 E2.15765
G0 F2400 X97.90 Y99.01
;TYPE:FILL
G1 F600 X97.56 Y99.06 E2.16038
G1 X96.77 Y99.29 E2.16494
G1 X96.98 Y98.80 E2.16818
G0 F2400 X96.98 Y98.96
G1 F2700 E2.16418
G0 F2400 X96.38 Y105.53
;TYPE:WALL-OUTER
G1 F2700 E2.16818
G1 F600 X98.04 Y105.53 E2.17831
G1 X98.04 Y106.34 E2.18324
G1 X96.38 Y106.34 E2.19337
G1 X96.38 Y105.53 E2.19831
G0 F2400 X96.52 Y106.13
;TYPE:FILL
G1 F600 X97.00 Y105.93 E2.20226
G1 X97.72 Y105.78 E2.20681
G1 X97.58 Y106.20 E2.20953
G0 F2400 X97.58 Y106.04
;Small layer, adding delay of 1.332071
G1 F2700 E2.20553
G0 F12000 X97.58 Y106.04 Z3.60
G0 X117.58 Y106.04
G4 P1332
;LAYER:4
G0 F2400 X109.09 Y106.34 Z0.70
;TYPE:WALL-OUTER
G1 F2700 E2.20953
G1 F600 X107.29 Y106.34 E2.22048
G1 X107.29 Y105.53 E2.22542
G1 X109.09 Y105.53 E2.23637
G1 X109.09 Y106.34 E2.24130
G0 F2400 X108.88 Y106.20
;TYPE:FILL
G1 F600 X108.33 Y105.93 E2.24587
G1 X107.61 Y105.78 E2.25043
G1 X107.75 Y106.20 E2.25316
G0 F2400 X107.75 Y106.04
G1 F2700 E2.24916
G0 F2400 X107.30 Y99.47
;TYPE:WALL-OUTER
G1 F2700 E2.25316
G1 F600 X107.30 Y98.66 E2.25809
G1 X109.08 Y98.66 E2.26898
G1 X109.08 Y99.47 E2.27391
G1 X107.30 Y99.47 E2.28479
G0 F2400 X107.76 Y99.33
;TYPE:FILL
G1 F600 X107.61 Y98.90 E2.28754
G1 X108.34 Y99.07 E2.29210
G1 X108.89 Y99.33 E2.29581
G0 F2400 X108.87 Y99.17
G1 F2700 E2.29181
G0 F2400 X98.11 Y99.47
;TYPE:WALL-OUTER
G1 F2700 E2.29581
G1 F600 X96.32 Y99.47 E2.30670
G1 X96.32 Y98.66 E2.31163
G1 X98.11 Y98.66 E2.32252
G1 X98.11 Y98.78 E2.32326
G1 X98.11 Y99.47 E2.32745
G0 F2400 X97.91 Y99.33
;TYPE:FILL
G1 F600 X97.36 Y99.06 E2.33201
G1 X96.64 Y98.90 E2.33658
G1 X96.78 Y99.33 E2.33931
G0 F2400 X96.78 Y99.17
G1 F2700 E2.33531
G0 F2400 X96.32 Y105.53
;TYPE:WALL-OUTER
G1 F2700 E2.33931
G1 F600 X98.11 Y105.53 E2.35025
G1 X98.11 Y106.34 E2.35518
G1 X96.32 Y106.34 E2.36613
G1 X96.32 Y105.53 E2.37106
G0 F2400 X96.45 Y105.88
;TYPE:FILL
G1 F600 X96.79 Y105.93 E2.37382
G1 X97.36 Y105.93 E2.37837
G1 X97.90 Y106.20 E2.38208
G0 F2400 X97.90 Y106.04
;Small layer, adding delay of 1.188258
G1 F2700 E2.37808
G0 F12000 X97.90 Y106.04 Z3.70
G0 X117.90 Y106.04
G4 P1188
;LAYER:5
G0 F2400 X109.15 Y106.34 Z0.80
;TYPE:WALL-OUTER
G1 F2700 E2.38208
G1 F600 X107.22 Y106.34 E2.39385
G1 X107.22 Y105.53 E2.39879
G1 X109.15 Y105.53 E2.41055
G1 X109.15 Y106.34 E2.41549
G0 F2400 X109.01 Y105.88
;TYPE:FILL
G1 F600 X108.68 Y105.93 E2.41823
G1 X108.11 Y105.93 E2.42278
G1 X107.46 Y106.02 E2.42735
G1 X107.53 Y105.67 E2.42950
G0 F2400 X107.53 Y105.83
G1 F2700 E2.42550
G0 F2400 X107.23 Y99.47
;TYPE:WALL-OUTER
G1 F2700 E2.42950
G1 F600 X107.23 Y98.66 E2.43443
G1 X109.15 Y98.66 E2.44614
G1 X109.15 Y99.47 E2.45107
G1 X107.23 Y99.47 E2.46277
G0 F2400 X107.56 Y99.33
;TYPE:FILL
G1 F600 X108.11 Y99.07 E2.46733
G1 X108.83 Y98.91 E2.47189
G1 X108.69 Y99.33 E2.47461
G0 F2400 X107.52 Y98.80
G1 F600 X107.37 Y98.95 E2.47593
G0 F2400 X107.53 Y98.95
G1 F2700 E2.47193
G0 F2400 X98.17 Y99.04
;TYPE:WALL-OUTER
G1 F2700 E2.47593
G1 F600 X98.17 Y99.47 E2.47853
G1 X96.26 Y99.47 E2.49022
G1 X96.25 Y98.66 E2.49516
G1 X98.17 Y98.66 E2.50686
G1 X98.17 Y99.04 E2.50919
G0 F2400 X98.03 Y99.01
;TYPE:FILL
G1 F600 X97.69 Y99.06 E2.51193
G1 X97.13 Y99.06 E2.51648
G1 X96.49 Y99.14 E2.52104
G1 X96.55 Y98.80 E2.52314
G0 F2400 X96.55 Y98.96
G1 F2700 E2.51914
G0 F2400 X96.25 Y105.53
;TYPE:WALL-OUTER
G1 F2700 E2.52314
G1 F600 X98.18 Y105.53 E2.53491
G1 X98.18 Y106.34 E2.53984
G1 X96.25 Y106.34 E2.55160
G1 X96.25 Y105.53 E2.55654
G0 F2400 X96.39 Y105.83
;TYPE:FILL
G1 F600 X96.57 Y105.93 E2.55794
G1 X97.13 Y105.93 E2.56249
G1 X97.86 Y105.78 E2.56704
G1 X97.72 Y106.20 E2.56976
G0 F2400 X97.72 Y106.04
;Small layer, adding delay of 0.954164
G1 F2700 E2.56576
G0 F12000 X97.72 Y106.04 Z3.80
G0 X117.72 Y106.04
G4 P954
;LAYER:6
G0 F3600 X109.22 Y106.34 Z0.90
;TYPE:WALL-OUTER
G1 F2700 E2.56976
G1 F900 X107.16 Y106.34 E2.58234
G1 X107.16 Y105.53 E2.58727
G1 X109.22 Y105.53 E2.59985
G1 X109.22 Y106.34 E2.60478
G0 F3600 X109.01 Y106.04
G1 F2700 E2.60078
G0 F3600 X109.22 Y99.47
G1 F2700 E2.60478
G1 F900 X107.17 Y99.47 E2.61730
G1 X107.16 Y98.66 E2.62224
G1 X109.22 Y98.66 E2.63475
G1 X109.22 Y99.47 E2.63969
G0 F3600 X109.01 Y99.17
G1 F2700 E2.63569
G0 F3600 X100.12 Y99.62
;TYPE:WALL-INNER
G1 F2700 E2.63969
G1 F900 X99.79 Y103.57 E2.66387
G1 X99.79 Y103.66 E2.66438
G1 X99.89 Y104.16 E2.66751
G1 X99.95 Y105.04 E2.67287
G1 X99.85 Y105.19 E2.67393
G1 X99.82 Y105.28 E2.67452
G1 X99.77 Y105.49 E2.67586
G1 X99.75 Y105.76 E2.67751
G1 X99.57 Y105.76 E2.67860
G1 X99.58 Y104.94 E2.68362
G1 X99.22 Y104.58 E2.68668
G1 X98.79 Y104.58 E2.68931
G1 X98.80 Y104.03 E2.69268
G1 X98.63 Y100.42 E2.71472
G1 X99.22 Y100.42 E2.71830
G1 X99.57 Y100.07 E2.72128
G1 X99.57 Y99.77 E2.72315
G1 X99.57 Y99.24 E2.72638
G1 X99.93 Y99.24 E2.72860
G1 X100.12 Y99.62 E2.73119
G0 F3600 X100.53 Y99.52
;TYPE:WALL-OUTER
G1 F900 X100.19 Y103.58 E2.75602
G1 X100.19 Y103.61 E2.75619
G1 X100.29 Y104.10 E2.75928
G1 X100.35 Y105.14 E2.76561
G1 X100.20 Y105.40 E2.76745
G1 X100.17 Y105.54 E2.76832
G1 X100.12 Y106.11 E2.77181
G1 X100.13 Y106.15 E2.77210
G1 X99.16 Y106.17 E2.77801
G1 X99.18 Y105.10 E2.78451
G1 X99.06 Y104.98 E2.78553
G1 X98.38 Y104.98 E2.78963
G1 X98.40 Y104.02 E2.79549
G1 X98.21 Y100.02 E2.81992
G1 X99.06 Y100.02 E2.82506
G1 X99.17 Y99.90 E2.82605
G1 X99.18 Y99.77 E2.82686
G1 X99.16 Y98.83 E2.83257
G1 X100.21 Y98.85 E2.83894
G1 X100.21 Y98.90 E2.83927
G1 X100.53 Y99.52 E2.84356
G0 F3600 X99.95 Y100.04
;TYPE:FILL
G1 F900 X99.65 Y100.03 E2.84556
G1 X99.88 Y100.82 E2.84826
G1 X99.30 Y100.53 E2.85221
G0 F3600 X98.79 Y100.58
G1 F900 X99.81 Y101.61 E2.86105
G0 F3600 X99.77 Y102.13
G1 F900 X98.81 Y101.17 E2.86935
G0 F3600 X98.83 Y101.76
G1 F900 X99.72 Y102.65 E2.87703
G0 F3600 X99.68 Y103.17
G1 F900 X98.86 Y102.35 E2.88407
G0 F3600 X98.89 Y102.95
G1 F900 X99.66 Y103.72 E2.89070
G0 F3600 X99.76 Y104.39
G1 F900 X98.92 Y103.54 E2.89798
G0 F3600 X98.94 Y104.13
G1 F900 X99.25 Y104.44 E2.90068
G0 F3600 X98.24 Y105.53
;TYPE:WALL-OUTER
G1 F900 X98.25 Y106.34 E2.90561
G1 X96.18 Y106.34 E2.91819
G1 X96.18 Y105.53 E2.92313
G1 X98.24 Y105.53 E2.93571
G0 F3600 X98.03 Y105.83
G1 F2700 E2.93171
G0 F3600 X98.24 Y99.47
G1 F2700 E2.93571
G1 F900 X96.19 Y99.47 E2.94822
G1 X96.19 Y98.66 E2.95315
G1 X98.24 Y98.66 E2.96568
G1 X98.24 Y99.31 E2.96960
G1 X98.24 Y99.47 E2.97061
G0 F3600 X97.94 Y99.26
;LAYER:7
G0 F12000 X98.31 Y99.47 Z1.00
;TYPE:WALL-OUTER
G1 F3000 X96.12 Y99.47 E2.98393
G1 X96.12 Y98.66 E2.98887
G1 X98.31 Y98.66 E3.00221
G1 X98.31 Y99.47 E3.00714
G0 F12000 X98.10 Y99.17
G0 X98.62 Y100.42
;TYPE:WALL-INNER
G1 F3000 X99.21 Y100.42 E3.01071
G1 X99.56 Y100.08 E3.01369
G1 X99.57 Y99.53 E3.01701
G1 X99.57 Y99.22 E3.01892
G1 X105.83 Y99.28 E3.05712
G1 X105.83 Y99.69 E3.05960
G1 X105.84 Y100.03 E3.06168
G1 X106.19 Y100.37 E3.06467
G1 X107.06 Y100.37 E3.06996
G1 X107.10 Y104.63 E3.09595
G1 X106.19 Y104.63 E3.10148
G1 X105.84 Y104.97 E3.10448
G1 X105.83 Y105.33 E3.10664
G1 X105.83 Y105.72 E3.10905
G1 X99.57 Y105.78 E3.14727
G1 X99.57 Y105.45 E3.14929
G1 X99.56 Y104.92 E3.15249
G1 X99.21 Y104.58 E3.15548
G1 X98.64 Y104.58 E3.15898
G1 X95.41 Y104.58 E3.17864
G1 X95.42 Y104.45 E3.17941
G1 X95.40 Y104.20 E3.18094
G1 X95.42 Y100.42 E3.20399
G1 X98.62 Y100.42 E3.22355
G0 F12000 X98.62 Y100.02
;TYPE:WALL-OUTER
G1 F3000 X99.05 Y100.02 E3.22613
G1 X99.16 Y99.90 E3.22713
G1 X99.17 Y99.54 E3.22938
G1 X99.16 Y98.81 E3.23380
G1 X106.24 Y98.88 E3.27694
G1 X106.23 Y99.68 E3.28179
G1 X106.24 Y99.86 E3.28286
G1 X106.35 Y99.97 E3.28386
G1 X107.45 Y99.97 E3.29057
G1 X107.50 Y105.03 E3.32145
G1 X106.36 Y105.03 E3.32845
G1 X106.24 Y105.14 E3.32945
G1 X106.23 Y105.33 E3.33057
G1 X106.24 Y106.12 E3.33539
G1 X99.16 Y106.19 E3.37852
G1 X99.17 Y105.45 E3.38303
G1 X99.17 Y105.10 E3.38520
G1 X99.05 Y104.98 E3.38621
G1 X98.64 Y104.98 E3.38871
G1 X95.32 Y104.98 E3.40895
G1 X95.20 Y105.09 E3.40994
G1 X95.19 Y105.27 E3.41102
G1 X95.20 Y106.00 E3.41548
G1 X95.04 Y105.92 E3.41653
G1 X95.00 Y105.67 E3.41809
G1 X95.03 Y104.94 E3.42256
G1 X95.00 Y104.65 E3.42430
G1 X95.02 Y104.49 E3.42532
G1 X95.00 Y104.23 E3.42688
G1 X95.01 Y100.35 E3.45056
G1 X95.04 Y100.06 E3.45235
G1 X95.00 Y99.33 E3.45675
G1 X95.04 Y99.08 E3.45832
G1 X95.20 Y99.00 E3.45936
G1 X95.20 Y99.73 E3.46380
G1 X95.20 Y99.91 E3.46488
G1 X95.32 Y100.02 E3.46588
G1 X98.62 Y100.02 E3.48605
G0 F12000 X98.69 Y100.56
;TYPE:FILL
G1 F3000 X95.54 Y103.71 E3.51326
G0 F12000 X95.54 Y104.27
G1 F3000 X99.28 Y100.54 E3.54545
G0 F12000 X99.69 Y100.13
G1 F3000 X100.45 Y99.37 E3.55199
G0 F12000 X99.89 Y99.36
G1 F3000 X99.71 Y99.54 E3.55349
G0 F12000 X101.01 Y99.37
G1 F3000 X95.94 Y104.44 E3.59716
G0 F12000 X96.51 Y104.44
G1 F3000 X101.57 Y99.38 E3.64080
G0 F12000 X102.13 Y99.38
G1 F3000 X97.07 Y104.44 E3.68439
G0 F12000 X97.64 Y104.44
G1 F3000 X102.69 Y99.39 E3.72796
G0 F12000 X103.25 Y99.39
G1 F3000 X98.20 Y104.44 E3.77149
G0 F12000 X98.77 Y104.44
G1 F3000 X103.81 Y99.40 E3.81499
G0 F12000 X104.37 Y99.40
G1 F3000 X99.30 Y104.47 E3.85871
G0 F12000 X99.59 Y104.75
G1 F3000 X104.93 Y99.41 E3.90479
G0 F12000 X105.49 Y99.41
G1 F3000 X99.71 Y105.20 E3.95468
G0 F12000 X99.84 Y105.64
G1 F3000 X105.69 Y99.78 E4.00518
G0 F12000 X105.83 Y100.21
G1 F3000 X100.41 Y105.63 E4.05193
G0 F12000 X100.98 Y105.62
G1 F3000 X106.11 Y100.49 E4.09621
G0 F12000 X106.66 Y100.51
G1 F3000 X101.55 Y105.62 E4.14029
G0 F12000 X102.12 Y105.61
G1 F3000 X106.92 Y100.82 E4.18168
G0 F12000 X106.93 Y101.38
G1 F3000 X102.69 Y105.61 E4.21819
G0 F12000 X103.26 Y105.60
G1 F3000 X106.93 Y101.93 E4.24983
G0 F12000 X106.94 Y102.50
G1 F3000 X103.83 Y105.60 E4.27660
G0 F12000 X104.40 Y105.59
G1 F3000 X106.94 Y103.06 E4.29849
G0 F12000 X106.95 Y103.61
G1 F3000 X104.97 Y105.59 E4.31552
G0 F12000 X105.54 Y105.58
G1 F3000 X105.69 Y105.44 E4.31680
G0 F12000 X106.64 Y104.49
G1 F3000 X106.95 Y104.18 E4.31950
G0 F12000 X98.13 Y100.56
G1 F3000 X95.54 Y103.14 E4.34180
G0 F12000 X95.54 Y102.57
G1 F3000 X97.56 Y100.56 E4.35920
G0 F12000 X96.99 Y100.56
G1 F3000 X95.55 Y102.00 E4.37168
G0 F12000 X95.55 Y101.44
G1 F3000 X96.43 Y100.56 E4.37924
G0 F12000 X95.86 Y100.56
G1 F3000 X95.55 Y100.87 E4.38190
G1 F2700 E4.37790
G0 F12000 X96.11 Y105.53
;TYPE:WALL-OUTER
G1 F2700 E4.38190
G1 F3000 X98.31 Y105.53 E4.39530
G1 X98.31 Y106.34 E4.40023
G1 X96.11 Y106.34 E4.41363
G1 X96.11 Y105.53 E4.41856
G0 F12000 X96.32 Y105.83
G1 F2700 E4.41456
G0 F12000 X107.09 Y105.53
G1 F2700 E4.41856
G1 F3000 X109.29 Y105.53 E4.43196
G1 X109.29 Y106.34 E4.43689
G1 X107.09 Y106.34 E4.45029
G1 X107.09 Y105.53 E4.45522
G0 F12000 X107.30 Y105.83
G1 F2700 E4.45122
G0 F12000 X107.10 Y99.47
G1 F2700 E4.45522
G1 F3000 X107.10 Y98.66 E4.46015
G1 X109.28 Y98.66 E4.47349
G1 X109.29 Y99.47 E4.47842
G1 X107.10 Y99.47 E4.49176
G0 F12000 X107.40 Y99.26
;LAYER:8
G0 X107.06 Y99.47 Z1.10
;TYPE:WALL-OUTER
G1 F3000 X107.06 Y98.66 E4.49669
G1 X109.32 Y98.66 E4.51047
G1 X109.32 Y99.47 E4.51540
G1 X107.06 Y99.47 E4.52918
G0 F12000 X107.36 Y99.26
G1 F2700 E4.52518
G0 F12000 X105.84 Y99.25
;TYPE:WALL-INNER
G1 F2700 E4.52918
G1 F3000 X105.84 Y99.47 E4.53056
G1 X105.85 Y100.02 E4.53392
G1 X106.20 Y100.37 E4.53692
G1 X109.54 Y100.37 E4.55732
G1 X109.54 Y104.63 E4.58334
G1 X106.20 Y104.63 E4.60373
G1 X105.85 Y104.97 E4.60673
G1 X105.84 Y105.75 E4.61147
G1 X99.57 Y105.79 E4.64971
G1 X99.57 Y105.69 E4.65036
G1 X99.55 Y104.92 E4.65501
G1 X99.20 Y104.58 E4.65800
G1 X98.34 Y104.58 E4.66324
